!!!COM: muz.: TKk
!!!OTL: Miły mój jest mój
**kern	**dynam	**kern	**dynam	**kern	**dynam	**kern	**dynam	**kern	**dynam	**kern	**dynam	**kern	**text	**dynam	**kern	**text	**dynam	**kern	**kern	**dynam	**kern	**dynam	**kern	**dynam	**kern	**dynam	**kern	**dynam
*part13	*part13	*part12	*part12	*part11	*part11	*part10	*part10	*part9	*part9	*part8	*part8	*part7	*part7	*part7	*part6	*part6	*part6	*part5	*part5	*part5	*part4	*part4	*part3	*part3	*part2	*part2	*part1	*part1
*staff14	*	*staff13	*	*staff12	*	*staff11	*	*staff10	*	*staff9	*	*staff8	*staff8	*	*staff7	*staff7	*	*staff6	*staff5	*	*staff4	*	*staff3	*	*staff2	*	*staff1	*
*I"Contrabbasso	*	*I"Violoncelli	*	*I"Viole	*	*I"Violini 2	*	*I"Violini 1	*	*I"Tenore Basso	*	*I"Soprano Alto	*	*	*I"Soprano Solista	*	*	*I"Arpa	*	*	*I"Fagotto	*	*I"Clarinetto in B♭	*	*I"Oboe	*	*I"Flauto	*
*I'C-b.	*	*I'V-c.	*	*I'V-le	*	*I'V-ni 2	*	*I'V-ni 1	*	*I'T B	*	*I'S A	*	*	*I'S. Sol.	*	*	*I'Ar.	*	*	*I'Fag.	*	*I'Cl. in B♭	*	*I'Ob.	*	*I'Fl.	*
*clefF4	*	*clefF4	*	*clefC3	*	*clefG2	*	*clefG2	*	*clefF4	*	*clefG2	*	*	*clefG2	*	*	*clefF4	*clefG2	*	*clefF4	*	*clefG2	*	*clefG2	*	*clefG2	*
*ITrd0c0	*	*	*	*	*	*	*	*	*	*	*	*	*	*	*	*	*	*	*	*	*	*	*ITrd1c2	*	*	*	*	*
*k[b-]	*	*k[b-]	*	*k[b-]	*	*k[b-]	*	*k[b-]	*	*k[b-]	*	*k[b-]	*	*	*k[b-]	*	*	*k[b-]	*k[b-]	*	*k[b-]	*	*k[b-]	*	*k[b-]	*	*k[b-]	*
*M3/4	*	*M3/4	*	*M3/4	*	*M3/4	*	*M3/4	*	*M3/4	*	*M3/4	*	*	*M3/4	*	*	*M3/4	*M3/4	*	*M3/4	*	*M3/4	*	*M3/4	*	*M3/4	*
*MM70	*MM70	*	*MM70	*	*MM70	*	*MM70	*	*MM70	*	*MM70	*	*MM70	*	*	*MM70	*	*	*MM70	*	*MM70	*	*MM70	*	*MM70	*	*MM70	*
=1	=1	=1	=1	=1	=1	=1	=1	=1	=1	=1	=1	=1	=1	=1	=1	=1	=1	=1	=1	=1	=1	=1	=1	=1	=1	=1	=1	=1
!	!	!	!	!	!	!	!	!	!	!	!	!	!	!	!	!	!	!	!	!	!	!	!	!	!	!	!LO:TX:a:t=[quarter]=70	!
2.r	.	2.r	.	2.r	.	2.r	.	2.r	.	2.r	.	2.r	.	.	2.r	.	.	2.F	8r	mf	2.r	.	2.r	.	2.r	.	2.r	.
.	.	.	.	.	.	.	.	.	.	.	.	.	.	.	.	.	.	.	8cL	.	.	.	.	.	.	.	.	.
.	.	.	.	.	.	.	.	.	.	.	.	.	.	.	.	.	.	.	8f	.	.	.	.	.	.	.	.	.
.	.	.	.	.	.	.	.	.	.	.	.	.	.	.	.	.	.	.	8aJ	.	.	.	.	.	.	.	.	.
.	.	.	.	.	.	.	.	.	.	.	.	.	.	.	.	.	.	.	8ccL	.	.	.	.	.	.	.	.	.
.	.	.	.	.	.	.	.	.	.	.	.	.	.	.	.	.	.	.	8ffJ	.	.	.	.	.	.	.	.	.
=2	=2	=2	=2	=2	=2	=2	=2	=2	=2	=2	=2	=2	=2	=2	=2	=2	=2	=2	=2	=2	=2	=2	=2	=2	=2	=2	=2	=2
2.r	.	2.r	.	2.r	.	2.r	.	2.r	.	2.r	.	2.r	.	.	2.r	.	.	2.F	8r	.	2.r	.	2.r	.	2.r	.	2.r	.
.	.	.	.	.	.	.	.	.	.	.	.	.	.	.	.	.	.	.	8cL	.	.	.	.	.	.	.	.	.
.	.	.	.	.	.	.	.	.	.	.	.	.	.	.	.	.	.	.	8f	.	.	.	.	.	.	.	.	.
.	.	.	.	.	.	.	.	.	.	.	.	.	.	.	.	.	.	.	8aJ	.	.	.	.	.	.	.	.	.
.	.	.	.	.	.	.	.	.	.	.	.	.	.	.	.	.	.	.	8ccL	.	.	.	.	.	.	.	.	.
.	.	.	.	.	.	.	.	.	.	.	.	.	.	.	.	.	.	.	8ffJ	.	.	.	.	.	.	.	.	.
=3	=3	=3	=3	=3	=3	=3	=3	=3	=3	=3	=3	=3	=3	=3	=3	=3	=3	=3	=3	=3	=3	=3	=3	=3	=3	=3	=3	=3
2.r	.	2.r	.	2.r	.	2.r	.	2.r	.	2.r	.	2.r	.	.	2.r	.	.	2.F	8r	.	2.r	.	2.r	.	2.r	.	2.r	.
.	.	.	.	.	.	.	.	.	.	.	.	.	.	.	.	.	.	.	8dL	.	.	.	.	.	.	.	.	.
.	.	.	.	.	.	.	.	.	.	.	.	.	.	.	.	.	.	.	8f	.	.	.	.	.	.	.	.	.
.	.	.	.	.	.	.	.	.	.	.	.	.	.	.	.	.	.	.	8b-J	.	.	.	.	.	.	.	.	.
.	.	.	.	.	.	.	.	.	.	.	.	.	.	.	.	.	.	.	8ddL	.	.	.	.	.	.	.	.	.
.	.	.	.	.	.	.	.	.	.	.	.	.	.	.	.	.	.	.	8ffJ	.	.	.	.	.	.	.	.	.
=4	=4	=4	=4	=4	=4	=4	=4	=4	=4	=4	=4	=4	=4	=4	=4	=4	=4	=4	=4	=4	=4	=4	=4	=4	=4	=4	=4	=4
2.r	.	2.r	.	2.r	.	2.r	.	2.r	.	2.r	.	2.r	.	.	2.r	.	.	2.F	8r	.	2.r	.	2r	.	2.r	.	2.r	.
.	.	.	.	.	.	.	.	.	.	.	.	.	.	.	.	.	.	.	8cL	.	.	.	.	.	.	.	.	.
.	.	.	.	.	.	.	.	.	.	.	.	.	.	.	.	.	.	.	8f	.	.	.	.	.	.	.	.	.
.	.	.	.	.	.	.	.	.	.	.	.	.	.	.	.	.	.	.	8aJ	.	.	.	.	.	.	.	.	.
.	.	.	.	.	.	.	.	.	.	.	.	.	.	.	.	.	.	.	8ccL	.	.	.	8aL	mf	.	.	.	.
.	.	.	.	.	.	.	.	.	.	.	.	.	.	.	.	.	.	.	8ffJ	.	.	.	8gJ	.	.	.	.	.
=5	=5	=5	=5	=5	=5	=5	=5	=5	=5	=5	=5	=5	=5	=5	=5	=5	=5	=5	=5	=5	=5	=5	=5	=5	=5	=5	=5	=5
2.r	.	2.r	.	2.r	.	2.r	.	2.r	.	2.r	.	2.r	.	.	2.r	.	.	2.F	8r	.	2.r	.	2f	.	2.r	.	2.r	.
.	.	.	.	.	.	.	.	.	.	.	.	.	.	.	.	.	.	.	8cL	.	.	.	.	.	.	.	.	.
.	.	.	.	.	.	.	.	.	.	.	.	.	.	.	.	.	.	.	8f	.	.	.	.	.	.	.	.	.
.	.	.	.	.	.	.	.	.	.	.	.	.	.	.	.	.	.	.	8aJ	.	.	.	.	.	.	.	.	.
.	.	.	.	.	.	.	.	.	.	.	.	.	.	.	.	.	.	.	8ccL	.	.	.	4g	.	.	.	.	.
.	.	.	.	.	.	.	.	.	.	.	.	.	.	.	.	.	.	.	8ffJ	.	.	.	.	.	.	.	.	.
=6	=6	=6	=6	=6	=6	=6	=6	=6	=6	=6	=6	=6	=6	=6	=6	=6	=6	=6	=6	=6	=6	=6	=6	=6	=6	=6	=6	=6
2.r	.	2.r	.	2.r	.	2.r	.	2.r	.	2.r	.	2.r	.	.	2.r	.	.	2.F	8r	.	2.r	.	4.a	.	2.r	.	2.r	.
.	.	.	.	.	.	.	.	.	.	.	.	.	.	.	.	.	.	.	8cL	.	.	.	.	.	.	.	.	.
.	.	.	.	.	.	.	.	.	.	.	.	.	.	.	.	.	.	.	8f	.	.	.	.	.	.	.	.	.
.	.	.	.	.	.	.	.	.	.	.	.	.	.	.	.	.	.	.	8aJ	.	.	.	8cc	.	.	.	.	.
.	.	.	.	.	.	.	.	.	.	.	.	.	.	.	.	.	.	.	8ccL	.	.	.	8b-L	.	.	.	.	.
.	.	.	.	.	.	.	.	.	.	.	.	.	.	.	.	.	.	.	8ffJ	.	.	.	8aJ	.	.	.	.	.
=7	=7	=7	=7	=7	=7	=7	=7	=7	=7	=7	=7	=7	=7	=7	=7	=7	=7	=7	=7	=7	=7	=7	=7	=7	=7	=7	=7	=7
2.r	.	2.r	.	2.r	.	2.r	.	2.r	.	2.r	.	2.r	.	.	2.r	.	.	2.F	8r	.	2.r	.	4f	.	2.r	.	2.r	.
.	.	.	.	.	.	.	.	.	.	.	.	.	.	.	.	.	.	.	8dL	.	.	.	.	.	.	.	.	.
.	.	.	.	.	.	.	.	.	.	.	.	.	.	.	.	.	.	.	8f	.	.	.	4dd	.	.	.	.	.
.	.	.	.	.	.	.	.	.	.	.	.	.	.	.	.	.	.	.	8b-J	.	.	.	.	.	.	.	.	.
.	.	.	.	.	.	.	.	.	.	.	.	.	.	.	.	.	.	.	8ddL	.	.	.	4cc	.	.	.	.	.
.	.	.	.	.	.	.	.	.	.	.	.	.	.	.	.	.	.	.	8ffJ	.	.	.	.	.	.	.	.	.
=8	=8	=8	=8	=8	=8	=8	=8	=8	=8	=8	=8	=8	=8	=8	=8	=8	=8	=8	=8	=8	=8	=8	=8	=8	=8	=8	=8	=8
2.r	.	2.r	.	2.r	.	2.r	.	2.r	.	2.r	.	2.r	.	.	2.r	.	.	2F	8r	.	2.r	.	4.a	.	2.r	.	2.r	.
.	.	.	.	.	.	.	.	.	.	.	.	.	.	.	.	.	.	.	8cL	.	.	.	.	.	.	.	.	.
.	.	.	.	.	.	.	.	.	.	.	.	.	.	.	.	.	.	.	8f	.	.	.	.	.	.	.	.	.
.	.	.	.	.	.	.	.	.	.	.	.	.	.	.	.	.	.	.	8aJ	.	.	.	8r	.	.	.	.	.
.	.	.	.	.	.	.	.	.	.	.	.	.	.	.	.	.	.	4E	8ccL	.	.	.	8aL	.	.	.	.	.
.	.	.	.	.	.	.	.	.	.	.	.	.	.	.	.	.	.	.	8ggJ	.	.	.	8ccJ	.	.	.	.	.
=9	=9	=9	=9	=9	=9	=9	=9	=9	=9	=9	=9	=9	=9	=9	=9	=9	=9	=9	=9	=9	=9	=9	=9	=9	=9	=9	=9	=9
*	*	*	*	*	*	*	*	*	*	*	*	*	*	*	*	*	*	*^	*	*	*	*	*	*	*	*	*	*
2.r	.	2.r	.	2.r	.	2.r	.	2.r	.	2.r	.	2.r	.	.	2.r	.	.	2D	8r	8aa	.	2.r	.	4dd	.	2.r	.	2.r	.
.	.	.	.	.	.	.	.	.	.	.	.	.	.	.	.	.	.	.	8AL	8r	.	.	.	.	.	.	.	.	.
.	.	.	.	.	.	.	.	.	.	.	.	.	.	.	.	.	.	.	8dJ	8r	.	.	.	4a	.	.	.	.	.
.	.	.	.	.	.	.	.	.	.	.	.	.	.	.	.	.	.	.	8r	8fL	.	.	.	.	.	.	.	.	.
.	.	.	.	.	.	.	.	.	.	.	.	.	.	.	.	.	.	4D	4r	8dd	.	.	.	8r	.	.	.	.	.
.	.	.	.	.	.	.	.	.	.	.	.	.	.	.	.	.	.	.	.	8aaJ	.	.	.	8dd	.	.	.	.	.
=10	=10	=10	=10	=10	=10	=10	=10	=10	=10	=10	=10	=10	=10	=10	=10	=10	=10	=10	=10	=10	=10	=10	=10	=10	=10	=10	=10	=10	=10
2.r	.	2.r	.	2.r	.	2.r	.	2.r	.	2.r	.	2.r	.	.	2.r	.	.	2C	8r	8ee	.	2.r	.	4ee	.	2.r	.	2.r	.
.	.	.	.	.	.	.	.	.	.	.	.	.	.	.	.	.	.	.	8AL	8r	.	.	.	.	.	.	.	.	.
.	.	.	.	.	.	.	.	.	.	.	.	.	.	.	.	.	.	.	8cJ	8r	.	.	.	4a	.	.	.	.	.
.	.	.	.	.	.	.	.	.	.	.	.	.	.	.	.	.	.	.	8r	8eL	.	.	.	.	.	.	.	.	.
.	.	.	.	.	.	.	.	.	.	.	.	.	.	.	.	.	.	4C	4r	8a	.	.	.	8r	.	.	.	.	.
.	.	.	.	.	.	.	.	.	.	.	.	.	.	.	.	.	.	.	.	8eeJ	.	.	.	[8ee	.	.	.	.	.
=11	=11	=11	=11	=11	=11	=11	=11	=11	=11	=11	=11	=11	=11	=11	=11	=11	=11	=11	=11	=11	=11	=11	=11	=11	=11	=11	=11	=11	=11
2.r	.	2.r	.	2.r	.	2.r	.	2.r	.	2.r	.	2.r	.	.	2.r	.	.	2BB-	8r	8dd	.	2.r	.	4ee]	.	2.r	.	2.r	.
.	.	.	.	.	.	.	.	.	.	.	.	.	.	.	.	.	.	.	8F	8r	.	.	.	.	.	.	.	.	.
.	.	.	.	.	.	.	.	.	.	.	.	.	.	.	.	.	.	.	8B-L	4r	.	.	.	4dd	.	.	.	.	.
.	.	.	.	.	.	.	.	.	.	.	.	.	.	.	.	.	.	.	8dJ	.	.	.	.	.	.	.	.	.	.
.	.	.	.	.	.	.	.	.	.	.	.	.	.	.	.	.	.	4BB-	4r	8ddL	.	.	.	8ccL	.	.	.	.	.
.	.	.	.	.	.	.	.	.	.	.	.	.	.	.	.	.	.	.	.	8fJ	.	.	.	8b-J	.	.	.	.	.
=12	=12	=12	=12	=12	=12	=12	=12	=12	=12	=12	=12	=12	=12	=12	=12	=12	=12	=12	=12	=12	=12	=12	=12	=12	=12	=12	=12	=12	=12
2r	.	2r	.	2r	.	2r	.	2.r	.	2.r	.	2.r	.	.	2.r	.	.	2C	2.r	8ccL	.	2.r	.	2.cc	.	2.r	.	2.r	.
.	.	.	.	.	.	.	.	.	.	.	.	.	.	.	.	.	.	.	.	16gL	.	.	.	.	.	.	.	.	.
.	.	.	.	.	.	.	.	.	.	.	.	.	.	.	.	.	.	.	.	16fJJ	.	.	.	.	.	.	.	.	.
.	.	.	.	.	.	.	.	.	.	.	.	.	.	.	.	.	.	.	.	16eLL	.	.	.	.	.	.	.	.	.
.	.	.	.	.	.	.	.	.	.	.	.	.	.	.	.	.	.	.	.	16d	.	.	.	.	.	.	.	.	.
.	.	.	.	.	.	.	.	.	.	.	.	.	.	.	.	.	.	.	.	16c	.	.	.	.	.	.	.	.	.
.	.	.	.	.	.	.	.	.	.	.	.	.	.	.	.	.	.	.	.	16B-JJ	.	.	.	.	.	.	.	.	.
!LO:TX:a:t=pizz.	!	!	!	!	!	!	!	!	!	!	!	!	!	!	!	!	!	!	!	!	!	!	!	!	!	!	!	!	!
4C	f	4C	f	8AL	f	8fL	f	.	.	.	.	.	.	.	.	.	.	16ALL	.	8r	.	.	.	.	.	.	.	.	.
.	.	.	.	.	.	.	.	.	.	.	.	.	.	.	.	.	.	16G	.	.	.	.	.	.	.	.	.	.	.
.	.	.	.	8B-J	.	8gJ	.	.	.	.	.	.	.	.	.	.	.	16F	.	8r	.	.	.	.	.	.	.	.	.
.	.	.	.	.	.	.	.	.	.	.	.	.	.	.	.	.	.	16EJJ	.	.	.	.	.	.	.	.	.	.	.
=13	=13	=13	=13	=13	=13	=13	=13	=13	=13	=13	=13	=13	=13	=13	=13	=13	=13	=13	=13	=13	=13	=13	=13	=13	=13	=13	=13	=13	=13
4F	.	2F	.	2.c	.	2a	.	2.r	.	2.r	.	2.r	.	.	2.r	.	.	4F	2.r	4r	f	2.r	.	2.r	.	2.r	.	2.r	.
4.r	.	.	.	.	.	.	.	.	.	.	.	.	.	.	.	.	.	4r	.	4ff	.	.	.	.	.	.	.	.	.
.	.	4E	.	.	.	4g	.	.	.	.	.	.	.	.	.	.	.	4r	.	4r	.	.	.	.	.	.	.	.	.
8E	.	.	.	.	.	.	.	.	.	.	.	.	.	.	.	.	.	.	.	.	.	.	.	.	.	.	.	.	.
*	*	*	*	*	*	*	*	*	*	*	*	*	*	*	*	*	*	*v	*v	*	*	*	*	*	*	*	*	*	*
=14	=14	=14	=14	=14	=14	=14	=14	=14	=14	=14	=14	=14	=14	=14	=14	=14	=14	=14	=14	=14	=14	=14	=14	=14	=14	=14	=14	=14
4F	.	2.F	.	2A	.	2cc	.	2.r	.	2.r	.	2.r	.	.	2.r	.	.	4.r	4.r	.	2.r	.	2.r	.	2.r	.	2.r	.
4.r	.	.	.	.	.	.	.	.	.	.	.	.	.	.	.	.	.	.	.	.	.	.	.	.	.	.	.	.
.	.	.	.	.	.	.	.	.	.	.	.	.	.	.	.	.	.	8c	8f	.	.	.	.	.	.	.	.	.
.	.	.	.	8GL	.	8b-L	.	.	.	.	.	.	.	.	.	.	.	8FL	8aL	.	.	.	.	.	.	.	.	.
16ALL	.	.	.	8AJ	.	8aJ	.	.	.	.	.	.	.	.	.	.	.	8AAJ	8ccJ	.	.	.	.	.	.	.	.	.
16FJJ	.	.	.	.	.	.	.	.	.	.	.	.	.	.	.	.	.	.	.	.	.	.	.	.	.	.	.	.
=15	=15	=15	=15	=15	=15	=15	=15	=15	=15	=15	=15	=15	=15	=15	=15	=15	=15	=15	=15	=15	=15	=15	=15	=15	=15	=15	=15	=15
4BB-	.	2.BB-	.	2d	.	2f	.	2.r	.	2.r	.	2.r	.	.	2.r	.	.	4BB-: 4F: 4B-:	4d: 4f: 4b-: 4dd:	.	2.r	.	2.r	.	2.r	.	2.r	.
4.r	.	.	.	.	.	.	.	.	.	.	.	.	.	.	.	.	.	4r	4r	.	.	.	.	.	.	.	.	.
.	.	.	.	4c	.	4g	.	.	.	.	.	.	.	.	.	.	.	4r	8r	.	.	.	.	.	.	.	.	.
8BB-	.	.	.	.	.	.	.	.	.	.	.	.	.	.	.	.	.	.	16ddLL	.	.	.	.	.	.	.	.	.
.	.	.	.	.	.	.	.	.	.	.	.	.	.	.	.	.	.	.	16eeJJ	.	.	.	.	.	.	.	.	.
=16	=16	=16	=16	=16	=16	=16	=16	=16	=16	=16	=16	=16	=16	=16	=16	=16	=16	=16	=16	=16	=16	=16	=16	=16	=16	=16	=16	=16
4F	.	2F	.	8cL	.	2a	.	2r	.	2.r	.	2.r	.	.	2.r	.	.	4F: 4c:	4f: 4a: 4cc: 4ff:	.	2.r	.	2.r	.	2.r	.	2.r	.
.	.	.	.	8dJ	.	.	.	.	.	.	.	.	.	.	.	.	.	.	.	.	.	.	.	.	.	.	.	.
4r	.	.	.	8cL	.	.	.	.	.	.	.	.	.	.	.	.	.	4r	2r	.	.	.	.	.	.	.	.	.
.	.	.	.	8B-J	.	.	.	.	.	.	.	.	.	.	.	.	.	.	.	.	.	.	.	.	.	.	.	.
4E	.	4E	.	8GL	.	4g	.	8ddL	f	.	.	.	.	.	.	.	.	8r	.	.	.	.	.	.	.	.	.	.
.	.	.	.	8cJ	.	.	.	8eeJ	.	.	.	.	.	.	.	.	.	8A	.	.	.	.	.	.	.	.	.	.
=17	=17	=17	=17	=17	=17	=17	=17	=17	=17	=17	=17	=17	=17	=17	=17	=17	=17	=17	=17	=17	=17	=17	=17	=17	=17	=17	=17	=17
4D	.	2.D	.	2.d	.	4.a	.	4.ff	.	2.r	.	2.r	.	.	2.r	.	.	4D	4r	.	2.r	.	2.r	.	2.r	.	2.r	.
4r	.	.	.	.	.	.	.	.	.	.	.	.	.	.	.	.	.	4r	4ff	.	.	.	.	.	.	.	.	.
.	.	.	.	.	.	8g	.	8ee	.	.	.	.	.	.	.	.	.	.	.	.	.	.	.	.	.	.	.	.
16FKL	.	.	.	.	.	8aL	.	8ffL	.	.	.	.	.	.	.	.	.	4r	4r	.	.	.	.	.	.	.	.	.
8D	.	.	.	.	.	.	.	.	.	.	.	.	.	.	.	.	.	.	.	.	.	.	.	.	.	.	.	.
.	.	.	.	.	.	8b-J	.	8ggJ	.	.	.	.	.	.	.	.	.	.	.	.	.	.	.	.	.	.	.	.
16CJk	.	.	.	.	.	.	.	.	.	.	.	.	.	.	.	.	.	.	.	.	.	.	.	.	.	.	.	.
=18	=18	=18	=18	=18	=18	=18	=18	=18	=18	=18	=18	=18	=18	=18	=18	=18	=18	=18	=18	=18	=18	=18	=18	=18	=18	=18	=18	=18
4AA	.	2.AA	.	4e	.	8ccL	.	8aaL	.	2.r	.	2.r	.	.	2.r	.	.	2.r	2r	.	2.r	.	2.r	.	2.r	.	2.r	.
.	.	.	.	.	.	8bnJ	.	8ggJ	.	.	.	.	.	.	.	.	.	.	.	.	.	.	.	.	.	.	.	.
4r	.	.	.	4c	.	8aL	.	8ffL	.	.	.	.	.	.	.	.	.	.	.	.	.	.	.	.	.	.	.	.
.	.	.	.	.	.	8gJ	.	8eeJ	.	.	.	.	.	.	.	.	.	.	.	.	.	.	.	.	.	.	.	.
4AA	.	.	.	4A	.	8fL	.	8ddL	.	.	.	.	.	.	.	.	.	.	16eLL	.	.	.	.	.	.	.	.	.
.	.	.	.	.	.	.	.	.	.	.	.	.	.	.	.	.	.	.	16g	.	.	.	.	.	.	.	.	.
.	.	.	.	.	.	8eJ	.	8ccJ	.	.	.	.	.	.	.	.	.	.	16a	.	.	.	.	.	.	.	.	.
.	.	.	.	.	.	.	.	.	.	.	.	.	.	.	.	.	.	.	16ccJJ	.	.	.	.	.	.	.	.	.
=19	=19	=19	=19	=19	=19	=19	=19	=19	=19	=19	=19	=19	=19	=19	=19	=19	=19	=19	=19	=19	=19	=19	=19	=19	=19	=19	=19	=19
4BB-	.	2.BB-	.	8FL	.	4d	.	8ddL	.	2.r	.	2.r	.	.	2.r	.	.	4BB-: 4F:	4B-: 4d: 4f: 4b-: 4dd:	.	2.r	.	2.r	.	2.r	.	2.r	.
.	.	.	.	8GJ	.	.	.	8ccJ	.	.	.	.	.	.	.	.	.	.	.	.	.	.	.	.	.	.	.	.
8r	.	.	.	8B-L	.	4f	.	8b-L	.	.	.	.	.	.	.	.	.	4r	4r	.	.	.	.	.	.	.	.	.
8FF	.	.	.	8cJ	.	.	.	8aJ	.	.	.	.	.	.	.	.	.	.	.	.	.	.	.	.	.	.	.	.
8BB-L	.	.	.	8B-L	.	4d	.	8gL	.	.	.	.	.	.	.	.	.	4BB-: 4F:	4B-: 4d: 4f: 4b-: 4dd:	.	.	.	.	.	.	.	.	.
8DJ	.	.	.	8AJ	.	.	.	8fJ	.	.	.	.	.	.	.	.	.	.	.	.	.	.	.	.	.	.	.	.
=20	=20	=20	=20	=20	=20	=20	=20	=20	=20	=20	=20	=20	=20	=20	=20	=20	=20	=20	=20	=20	=20	=20	=20	=20	=20	=20	=20	=20
4C	.	(2.C	.	(2.c	.	2.f	.	[2g	.	2.r	.	2.r	.	.	2.r	.	.	4C: 4G: 4c:	4f: 4g: 4cc:	.	2.r	.	2.r	.	2.r	.	2.r	.
4.r	.	.	.	.	.	.	.	.	.	.	.	.	.	.	.	.	.	4r	4r	.	.	.	.	.	.	.	.	.
.	.	.	.	.	.	.	.	8gL]	.	.	.	.	.	.	.	.	.	4r	4g	.	.	.	.	.	.	.	.	.
16r	.	.	.	.	.	.	.	8aJ	.	.	.	.	.	.	.	.	.	.	.	.	.	.	.	.	.	.	.	.
16G	.	.	.	.	.	.	.	.	.	.	.	.	.	.	.	.	.	.	.	.	.	.	.	.	.	.	.	.
=21	=21	=21	=21	=21	=21	=21	=21	=21	=21	=21	=21	=21	=21	=21	=21	=21	=21	=21	=21	=21	=21	=21	=21	=21	=21	=21	=21	=21
4c	.	4C)	.	4c)	.	4e	.	4g	.	2.r	.	2.r	.	.	2r	.	.	8C	2.r	.	2.r	.	2.r	.	2r	.	2.r	.
.	.	.	.	.	.	.	.	.	.	.	.	.	.	.	.	.	.	4r	.	.	.	.	.	.	.	.	.	.
4r	.	4r	.	4r	.	4r	.	4r	.	.	.	.	.	.	.	.	.	.	.	.	.	.	.	.	.	.	.	.
.	.	.	.	.	.	.	.	.	.	.	.	.	.	.	.	.	.	4.r	.	.	.	.	.	.	.	.	.	.
4r	.	4r	.	4r	.	4r	.	4r	.	.	.	.	.	.	8aL	Mi-	mf	.	.	.	.	.	.	.	8aL	mf	.	.
.	.	.	.	.	.	.	.	.	.	.	.	.	.	.	8gJ	-ły	.	.	.	.	.	.	.	.	8gJ	.	.	.
=22||	=22||	=22||	=22||	=22||	=22||	=22||	=22||	=22||	=22||	=22||	=22||	=22||	=22||	=22||	=22||	=22||	=22||	=22||	=22||	=22||	=22||	=22||	=22||	=22||	=22||	=22||	=22||	=22||
!	!	!LO:TX:a:t=pizz.	!	!	!	!	!	!	!	!	!	!	!	!	!	!	!	!	!	!	!	!	!	!	!	!	!	!
2.r	.	4F	mp	8r	.	8r	.	8r	.	2.r	.	2.r	.	.	2a	mój	.	2.r	2.r	.	2.r	.	2.r	.	2a	.	2.r	.
!	!	!	!	!LO:TX:a:t=pizz.	!	!LO:TX:a:t=pizz.	!	!LO:TX:a:t=pizz.	!	!	!	!	!	!	!	!	!	!	!	!	!	!	!	!	!	!	!	!
.	.	.	.	8AL	mp	8cL	mp	8fL	mp	.	.	.	.	.	.	.	.	.	.	.	.	.	.	.	.	.	.	.
.	.	4.r	.	8cJ	.	8fJ	.	8aJ	.	.	.	.	.	.	.	.	.	.	.	.	.	.	.	.	.	.	.	.
.	.	.	.	8r	.	8r	.	8r	.	.	.	.	.	.	.	.	.	.	.	.	.	.	.	.	.	.	.	.
.	.	.	.	4r	.	4r	.	4r	.	.	.	.	.	.	4g	jest	.	.	.	.	.	.	.	.	4g	.	.	.
.	.	8G	.	.	.	.	.	.	.	.	.	.	.	.	.	.	.	.	.	.	.	.	.	.	.	.	.	.
=23	=23	=23	=23	=23	=23	=23	=23	=23	=23	=23	=23	=23	=23	=23	=23	=23	=23	=23	=23	=23	=23	=23	=23	=23	=23	=23	=23	=23
2.r	.	4F	.	8r	.	8r	.	8r	.	2.r	.	2.r	.	.	2a	mój,	.	2.r	2.r	.	2.r	.	2.r	.	2a	.	2.r	.
.	.	.	.	8AL	.	8cL	.	8fL	.	.	.	.	.	.	.	.	.	.	.	.	.	.	.	.	.	.	.	.
.	.	4.r	.	8cJ	.	8fJ	.	8aJ	.	.	.	.	.	.	.	.	.	.	.	.	.	.	.	.	.	.	.	.
.	.	.	.	8r	.	8r	.	8r	.	.	.	.	.	.	.	.	.	.	.	.	.	.	.	.	.	.	.	.
.	.	.	.	4r	.	4r	.	4r	.	.	.	.	.	.	4cc	a	.	.	.	.	.	.	.	.	4cc	.	.	.
.	.	8AA	.	.	.	.	.	.	.	.	.	.	.	.	.	.	.	.	.	.	.	.	.	.	.	.	.	.
=24	=24	=24	=24	=24	=24	=24	=24	=24	=24	=24	=24	=24	=24	=24	=24	=24	=24	=24	=24	=24	=24	=24	=24	=24	=24	=24	=24	=24
2.r	.	4BB-	.	8r	.	8r	.	8r	.	2.r	.	2.r	.	.	2dd	ja	.	2.r	2.r	.	2.r	.	2.r	.	[2dd	.	2.r	.
.	.	.	.	8B-L	.	8dL	.	8fL	.	.	.	.	.	.	.	.	.	.	.	.	.	.	.	.	.	.	.	.
.	.	4.r	.	8dJ	.	8fJ	.	8b-J	.	.	.	.	.	.	.	.	.	.	.	.	.	.	.	.	.	.	.	.
.	.	.	.	8r	.	8r	.	8r	.	.	.	.	.	.	.	.	.	.	.	.	.	.	.	.	.	.	.	.
.	.	.	.	4r	.	4r	.	4r	.	.	.	.	.	.	8ddL	jes-	.	.	.	.	.	.	.	.	8ddL]	.	.	.
.	.	8BB-	.	.	.	.	.	.	.	.	.	.	.	.	8ccJ	-tem	.	.	.	.	.	.	.	.	8ccJ	.	.	.
=25	=25	=25	=25	=25	=25	=25	=25	=25	=25	=25	=25	=25	=25	=25	=25	=25	=25	=25	=25	=25	=25	=25	=25	=25	=25	=25	=25	=25
2.r	.	4F	.	8r	.	8r	.	8r	.	2.r	.	2.r	.	.	4a	je-	.	2.r	2.r	.	2.r	.	2.r	.	2a	.	2.r	.
.	.	.	.	8AL	.	8cL	.	8fL	.	.	.	.	.	.	.	.	.	.	.	.	.	.	.	.	.	.	.	.
.	.	4r	.	8cJ	.	8fJ	.	8aJ	.	.	.	.	.	.	4a	-go.	.	.	.	.	.	.	.	.	.	.	.	.
.	.	.	.	8r	.	8r	.	8r	.	.	.	.	.	.	.	.	.	.	.	.	.	.	.	.	.	.	.	.
.	.	8FL	.	4r	.	4r	.	4r	.	.	.	.	.	.	8aL	Mi-	.	.	.	.	.	.	.	.	8aL	.	.	.
.	.	8EJ	.	.	.	.	.	.	.	.	.	.	.	.	8gJ	-ły	.	.	.	.	.	.	.	.	8gJ	.	.	.
=26	=26	=26	=26	=26	=26	=26	=26	=26	=26	=26	=26	=26	=26	=26	=26	=26	=26	=26	=26	=26	=26	=26	=26	=26	=26	=26	=26	=26
2.r	.	4D	.	8r	.	8r	.	8r	.	2.r	.	2.r	.	.	2a	mój	.	2.r	2.r	.	2.r	.	2.r	.	4.a	.	2.r	.
.	.	.	.	8AL	.	8dL	.	8fL	.	.	.	.	.	.	.	.	.	.	.	.	.	.	.	.	.	.	.	.
.	.	4r	.	8dJ	.	8fJ	.	8aJ	.	.	.	.	.	.	.	.	.	.	.	.	.	.	.	.	.	.	.	.
.	.	.	.	8r	.	8r	.	8r	.	.	.	.	.	.	.	.	.	.	.	.	.	.	.	.	16gLL	.	.	.
.	.	.	.	.	.	.	.	.	.	.	.	.	.	.	.	.	.	.	.	.	.	.	.	.	16fJJ	.	.	.
.	.	8FL	.	4r	.	4r	.	4r	.	.	.	.	.	.	4g	jest	.	.	.	.	.	.	.	.	8gL	.	.	.
.	.	8DJ	.	.	.	.	.	.	.	.	.	.	.	.	.	.	.	.	.	.	.	.	.	.	8ddJ	.	.	.
=27	=27	=27	=27	=27	=27	=27	=27	=27	=27	=27	=27	=27	=27	=27	=27	=27	=27	=27	=27	=27	=27	=27	=27	=27	=27	=27	=27	=27
2.r	.	4C	.	8r	.	8r	.	8r	.	2.r	.	2.r	.	.	2a	mój,	.	2.r	2.r	.	2.r	.	2.r	.	4ee~	.	2.r	.
.	.	.	.	8AL	.	8cL	.	8eL	.	.	.	.	.	.	.	.	.	.	.	.	.	.	.	.	.	.	.	.
.	.	4r	.	8cJ	.	8eJ	.	8aJ	.	.	.	.	.	.	.	.	.	.	.	.	.	.	.	.	4cc~	.	.	.
.	.	.	.	8r	.	8r	.	8r	.	.	.	.	.	.	.	.	.	.	.	.	.	.	.	.	.	.	.	.
.	.	8AAL	.	4r	.	4r	.	4r	.	.	.	.	.	.	4cc	a	.	.	.	.	.	.	.	.	4a~	.	.	.
.	.	8CJ	.	.	.	.	.	.	.	.	.	.	.	.	.	.	.	.	.	.	.	.	.	.	.	.	.	.
=28	=28	=28	=28	=28	=28	=28	=28	=28	=28	=28	=28	=28	=28	=28	=28	=28	=28	=28	=28	=28	=28	=28	=28	=28	=28	=28	=28	=28
2.r	.	4BB-	.	8r	.	8r	.	8r	.	2.r	.	2.r	.	.	4f	ja	.	2.r	2.r	.	2.r	.	2.r	.	4f	.	2.r	.
.	.	.	.	8B-L	.	8dL	.	8fL	.	.	.	.	.	.	.	.	.	.	.	.	.	.	.	.	.	.	.	.
.	.	4r	.	8dJ	.	8fJ	.	8b-J	.	.	.	.	.	.	4f	jes-	.	.	.	.	.	.	.	.	4b-	.	.	.
.	.	.	.	8r	.	8r	.	8r	.	.	.	.	.	.	.	.	.	.	.	.	.	.	.	.	.	.	.	.
.	.	8DL	.	8r	.	8r	.	8r	.	.	.	.	.	.	4g	-tem	.	.	.	.	.	.	.	.	4a	.	.	.
.	.	8BB-J	.	8d	.	8f	.	8b-	.	.	.	.	.	.	.	.	.	.	.	.	.	.	.	.	.	.	.	.
=29	=29	=29	=29	=29	=29	=29	=29	=29	=29	=29	=29	=29	=29	=29	=29	=29	=29	=29	=29	=29	=29	=29	=29	=29	=29	=29	=29	=29
*	*	*	*	*	*	*	*	*	*	*^	*	*^	*	*	*^	*	*	*	*	*	*	*	*	*	*	*	*	*
2r	.	4FF	.	4c	.	4f	.	4a	.	2r	2ryy	.	2r	2reyy	.	.	4f	2reyy	je-	.	2.r	2.r	.	2.r	.	2.r	.	4f	.	2.r	.
.	.	4r	.	4r	.	4r	.	4r	.	.	.	.	.	.	.	.	4f	.	-go.	.	.	.	.	.	.	.	.	4f	.	.	.
*	*	*	*	*	*	*	*	*	*	*	*	*	*	*	*	*	*v	*v	*	*	*	*	*	*	*	*	*	*	*	*	*
!	!	!	!	!LO:TX:a:t=arco	!	!LO:TX:a:t=arco	!	!LO:TX:a:t=arco	!	!	!	!	!	!	!	!	!	!	!	!	!	!	!	!	!	!	!	!	!	!
8r	.	8r	.	4c	mf	8fL	mf	8aL	mf	8cL	8FL	mf mf	8aL	8fL	Mi-	mf mf	4r	.	.	.	.	.	.	.	.	.	4r	.	.	.
!LO:TX:a:t=arco	!	!LO:TX:a:t=arco	!	!	!	!	!	!	!	!	!	!	!	!	!	!	!	!	!	!	!	!	!	!	!	!	!	!	!	!
8C	mf	8C	mf	.	.	8eJ	.	8gJ	.	8cJ	8CJ	.	8gJ	8eJ	-ły	.	.	.	.	.	.	.	.	.	.	.	.	.	.	.
=30	=30	=30	=30	=30	=30	=30	=30	=30	=30	=30	=30	=30	=30	=30	=30	=30	=30	=30	=30	=30	=30	=30	=30	=30	=30	=30	=30	=30	=30	=30
2F	.	2F	.	2c	.	2f	.	2a	.	2c	2F	.	2a	2f	mój	.	2.r	.	.	2.r	2.r	.	2.r	.	2.r	.	2.r	.	2.r	.
4G	.	4G	.	4c	.	4e	.	4g	.	4c	4G	.	4g	4e	jest	.	.	.	.	.	.	.	.	.	.	.	.	.	.	.
=31	=31	=31	=31	=31	=31	=31	=31	=31	=31	=31	=31	=31	=31	=31	=31	=31	=31	=31	=31	=31	=31	=31	=31	=31	=31	=31	=31	=31	=31	=31
2F	.	2F	.	2c	.	2f	.	2a	.	2c	2F	.	2a	2f	mój,	.	2.r	.	.	2.r	2.r	.	2.r	.	2.r	.	2.r	.	2.r	.
4A	.	4A	.	4c	.	4f	.	4cc	.	4c	4A	.	4cc	4f	a	.	.	.	.	.	.	.	.	.	.	.	.	.	.	.
=32	=32	=32	=32	=32	=32	=32	=32	=32	=32	=32	=32	=32	=32	=32	=32	=32	=32	=32	=32	=32	=32	=32	=32	=32	=32	=32	=32	=32	=32	=32
2B-	.	2B-	.	4d	.	2f	.	2dd	.	2f	2B-	.	2dd	(4cc	ja	.	2.r	.	.	2.r	2.r	.	2.r	.	2.r	.	2.r	.	2.r	.
.	.	.	.	4c	.	.	.	.	.	.	.	.	.	4b-)	.	.	.	.	.	.	.	.	.	.	.	.	.	.	.	.
8B-L	.	8B-L	.	8B-L	.	8fL	.	8ddL	.	8B-L	8B-L	.	8ddL	8fL	jes-	.	.	.	.	.	.	.	.	.	.	.	.	.	.	.
8AJ	.	8AJ	.	8cJ	.	8gJ	.	8ccJ	.	8cJ	8AJ	.	8ccJ	8gJ	-tem	.	.	.	.	.	.	.	.	.	.	.	.	.	.	.
=33	=33	=33	=33	=33	=33	=33	=33	=33	=33	=33	=33	=33	=33	=33	=33	=33	=33	=33	=33	=33	=33	=33	=33	=33	=33	=33	=33	=33	=33	=33
2F	.	2F	.	2c	.	4g	.	2a	.	4c	4F	.	4a	4g	je-	.	2.r	.	.	2.r	2.r	.	2.r	.	2.r	.	2.r	.	2.r	.
.	.	.	.	.	.	4f	.	.	.	4c	4F	.	4a	4f	-go.	.	.	.	.	.	.	.	.	.	.	.	.	.	.	.
8FL	.	8FL	.	8cL	.	8fL	.	8aL	.	8cL	8FL	.	8aL	8fL	Mi-	.	.	.	.	.	.	.	.	.	.	.	.	.	.	.
8EJ	.	8EJ	.	8cJ	.	8eJ	.	8gJ	.	8cJ	8EJ	.	8gJ	8eJ	-ły	.	.	.	.	.	.	.	.	.	.	.	.	.	.	.
=34	=34	=34	=34	=34	=34	=34	=34	=34	=34	=34	=34	=34	=34	=34	=34	=34	=34	=34	=34	=34	=34	=34	=34	=34	=34	=34	=34	=34	=34	=34
2.D	.	2.D	.	2d	.	2f	.	2a	.	2d	2D	.	2a	2f	mój	.	2.r	.	.	2.r	2.r	.	2.r	.	2.r	.	2.r	.	2.r	.
.	.	.	.	4d	.	4e	.	4g	.	4d	4D	.	4g	4e	jest	.	.	.	.	.	.	.	.	.	.	.	.	.	.	.
=35	=35	=35	=35	=35	=35	=35	=35	=35	=35	=35	=35	=35	=35	=35	=35	=35	=35	=35	=35	=35	=35	=35	=35	=35	=35	=35	=35	=35	=35	=35
2.C	.	2.C	.	2A	.	2e	.	2a	.	2A	2C	.	2a	2e	mój,	.	2.r	.	.	2.r	2.r	.	2.r	.	2.r	.	2.r	.	2.r	.
.	.	.	.	4A	.	4e	.	4cc	.	4A	4C	.	4cc	4e	a	.	.	.	.	.	.	.	.	.	.	.	.	.	.	.
=36	=36	=36	=36	=36	=36	=36	=36	=36	=36	=36	=36	=36	=36	=36	=36	=36	=36	=36	=36	=36	=36	=36	=36	=36	=36	=36	=36	=36	=36	=36
2.BB-	.	2.BB-	.	4c	.	4d	.	4f	.	4c	4BB-	.	4f	4d	ja	.	2.r	.	.	2.r	2.r	.	2.r	.	2.r	.	2.r	.	2.r	.
.	.	.	.	4B-	.	4d	.	4f	.	4B-	4BB-	.	4f	4d	jes-	.	.	.	.	.	.	.	.	.	.	.	.	.	.	.
.	.	.	.	4B-	.	4c	.	4g	.	4B-	4BB-	.	4g	4c	-tem	.	.	.	.	.	.	.	.	.	.	.	.	.	.	.
=37	=37	=37	=37	=37	=37	=37	=37	=37	=37	=37	=37	=37	=37	=37	=37	=37	=37	=37	=37	=37	=37	=37	=37	=37	=37	=37	=37	=37	=37	=37
2F	.	2F	.	4B-	.	2c	.	2f	.	4B-	4F	.	4f	4c	je-	.	2.r	.	.	2.r	2.r	.	2.r	.	2.r	.	2.r	.	4r	.
.	.	.	.	4A	.	.	.	.	.	4A	4F	.	4f	4c	-go.	.	.	.	.	.	.	.	.	.	.	.	.	.	4r	.
4r	.	8FL	p	8cL	p	8fL	p	8aL	p	8cL	8FL	p p	8aL	8fL	Mi-	p p	.	.	.	.	.	.	.	.	.	.	.	.	4r	.
.	.	8CJ	.	8cJ	.	8eJ	.	8gJ	.	8cJ	8CJ	.	8gJ	8eJ	-ły	.	.	.	.	.	.	.	.	.	.	.	.	.	.	.
=38	=38	=38	=38	=38	=38	=38	=38	=38	=38	=38	=38	=38	=38	=38	=38	=38	=38	=38	=38	=38	=38	=38	=38	=38	=38	=38	=38	=38	=38	=38
2.r	.	2F	.	2c	.	2f	.	2a	.	2c	2F	.	2a	2f	mój	.	2r	.	.	2.r	2.r	.	2.r	.	2.r	.	2.r	.	2.r	.
.	.	4G	.	4c	.	4e	.	4g	.	4c	4G	.	4g	4e	jest	.	4cc	Ja	f	.	.	.	.	.	.	.	.	.	.	.
=39	=39	=39	=39	=39	=39	=39	=39	=39	=39	=39	=39	=39	=39	=39	=39	=39	=39	=39	=39	=39	=39	=39	=39	=39	=39	=39	=39	=39	=39	=39
2.r	.	2F	.	2c	.	2f	.	2a	.	2c	2F	.	2a	2f	mój,	.	2cc	śpię,	.	2.r	2.r	.	2.r	.	2.r	.	2.r	.	2.r	.
.	.	4A	.	4c	.	4f	.	4cc	.	4c	4A	.	4cc	4f	a	.	4cc	lecz	.	.	.	.	.	.	.	.	.	.	.	.
=40	=40	=40	=40	=40	=40	=40	=40	=40	=40	=40	=40	=40	=40	=40	=40	=40	=40	=40	=40	=40	=40	=40	=40	=40	=40	=40	=40	=40	=40	=40
2.r	.	2B-	.	4d	.	2f	.	2dd	.	2f	2B-	.	2dd	(4cc	ja	.	4b-	ser-	.	2.r	2.r	.	2.r	.	2.r	.	2.r	.	2.r	.
.	.	.	.	4c	.	.	.	.	.	.	.	.	.	4b-)	.	.	4cc	-ce	.	.	.	.	.	.	.	.	.	.	.	.
.	.	8B-L	.	8B-L	.	8fL	.	8ddL	.	8B-L	8B-L	.	8ddL	8fL	jes-	.	4dd	me	.	.	.	.	.	.	.	.	.	.	.	.
.	.	8AJ	.	8cJ	.	8gJ	.	8ccJ	.	8cJ	8AJ	.	8ccJ	8gJ	-tem	.	.	.	.	.	.	.	.	.	.	.	.	.	.	.
=41	=41	=41	=41	=41	=41	=41	=41	=41	=41	=41	=41	=41	=41	=41	=41	=41	=41	=41	=41	=41	=41	=41	=41	=41	=41	=41	=41	=41	=41	=41
2.r	.	2F	.	2c	.	4g	.	2a	.	4c	4F	.	4a	4g	je-	.	(8ddL	czu-	.	2.r	2.r	.	2.r	.	2.r	.	2.r	.	2.r	.
.	.	.	.	.	.	.	.	.	.	.	.	.	.	.	.	.	8ccJ)	.	.	.	.	.	.	.	.	.	.	.	.	.
.	.	.	.	.	.	4f	.	.	.	4c	4F	.	4a	4f	-go.	.	4.cc	-wa:	.	.	.	.	.	.	.	.	.	.	.	.
.	.	8FL	.	8cL	.	8fL	.	8aL	.	8cL	8FL	.	8aL	8fL	Mi-	.	.	.	.	.	.	.	.	.	.	.	.	.	.	.
.	.	8EJ	.	8cJ	.	8eJ	.	8gJ	.	8cJ	8EJ	.	8gJ	8eJ	-ły	.	8r	.	.	.	.	.	.	.	.	.	.	.	.	.
=42	=42	=42	=42	=42	=42	=42	=42	=42	=42	=42	=42	=42	=42	=42	=42	=42	=42	=42	=42	=42	=42	=42	=42	=42	=42	=42	=42	=42	=42	=42
2.r	.	2.D	.	2d	.	2f	.	2a	.	2d	2D	.	2a	2f	mój	.	8ddL	sły-	.	2.r	2.r	.	2.r	.	2.r	.	2.r	.	2.r	.
.	.	.	.	.	.	.	.	.	.	.	.	.	.	.	.	.	8eeJ	-szę	.	.	.	.	.	.	.	.	.	.	.	.
.	.	.	.	.	.	.	.	.	.	.	.	.	.	.	.	.	4ff	dżwięk!	.	.	.	.	.	.	.	.	.	.	.	.
.	.	.	.	4d	.	4e	.	4g	.	4d	4D	.	4g	4e	jest	.	8r	.	.	.	.	.	.	.	.	.	.	.	.	.
.	.	.	.	.	.	.	.	.	.	.	.	.	.	.	.	.	8dd	To	.	.	.	.	.	.	.	.	.	.	.	.
=43	=43	=43	=43	=43	=43	=43	=43	=43	=43	=43	=43	=43	=43	=43	=43	=43	=43	=43	=43	=43	=43	=43	=43	=43	=43	=43	=43	=43	=43	=43
2.r	.	2.C	.	2A	.	2e	.	2a	.	2A	2C	.	2a	2e	mój,	.	8eeL	Mi-	.	2.r	2.r	.	2.r	.	2.r	.	2.r	.	2.r	.
.	.	.	.	.	.	.	.	.	.	.	.	.	.	.	.	.	8ddJ	-ły	.	.	.	.	.	.	.	.	.	.	.	.
.	.	.	.	.	.	.	.	.	.	.	.	.	.	.	.	.	4cc	mój	.	.	.	.	.	.	.	.	.	.	.	.
.	.	.	.	4A	.	4e	.	4cc	.	4A	4C	.	4cc	4e	a	.	8r	.	.	.	.	.	.	.	.	.	.	.	.	.
.	.	.	.	.	.	.	.	.	.	.	.	.	.	.	.	.	8a	już	.	.	.	.	.	.	.	.	.	.	.	.
=44	=44	=44	=44	=44	=44	=44	=44	=44	=44	=44	=44	=44	=44	=44	=44	=44	=44	=44	=44	=44	=44	=44	=44	=44	=44	=44	=44	=44	=44	=44
2.r	.	2.BB-	.	4c	.	4d	.	4f	.	4c	4BB-	.	4f	4d	ja	.	8ddL	pu-	.	2.r	2.r	.	2.r	.	2.r	.	2.r	.	2.r	.
.	.	.	.	.	.	.	.	.	.	.	.	.	.	.	.	.	8ccJ	-ka	.	.	.	.	.	.	.	.	.	.	.	.
.	.	.	.	4B-	.	4d	.	4f	.	4B-	4BB-	.	4f	4d	jes-	.	4dd	do	.	.	.	.	.	.	.	.	.	.	.	.
.	.	.	.	4B-	.	4c	.	4g	.	4B-	4BB-	.	4g	4c	-tem	.	4ff	mych	.	.	.	.	.	.	.	.	.	.	.	.
=45	=45	=45	=45	=45	=45	=45	=45	=45	=45	=45	=45	=45	=45	=45	=45	=45	=45	=45	=45	=45	=45	=45	=45	=45	=45	=45	=45	=45	=45	=45
2r	.	2F	.	4B-	.	2c	.	2f	.	4B-	4F	.	4f	4c	je-	.	2cc	drzwi!	.	2.r	2.r	.	2.r	.	2.r	.	2.r	.	2.r	.
.	.	.	.	4A	.	.	.	.	.	4A	4F	.	4f	4c	-go.	.	.	.	.	.	.	.	.	.	.	.	.	.	.	.
8FL	.	8FL	mf	8cL	mf	8fL	mf	8aL	mf	8cL	8FL	mf mf	8aL	8fL	Mi-	mf	4r	.	.	.	.	.	.	.	.	.	.	.	.	.
8CJ	.	8CJ	.	8cJ	.	8eJ	.	8gJ	.	8cJ	8CJ	.	8gJ	8eJ	-ły	.	.	.	.	.	.	.	.	.	.	.	.	.	.	.
=46	=46	=46	=46	=46	=46	=46	=46	=46	=46	=46	=46	=46	=46	=46	=46	=46	=46	=46	=46	=46	=46	=46	=46	=46	=46	=46	=46	=46	=46	=46
2F	.	2F	.	2c	.	2f	.	2a	.	2c	2F	.	2a	2f	mój	.	2.r	.	.	2.r	2.r	.	2.r	.	2.r	.	2.r	.	8r	.
.	.	.	.	.	.	.	.	.	.	.	.	.	.	.	.	.	.	.	.	.	.	.	.	.	.	.	.	.	16ffLL	mf
.	.	.	.	.	.	.	.	.	.	.	.	.	.	.	.	.	.	.	.	.	.	.	.	.	.	.	.	.	16ggJJ	.
.	.	.	.	.	.	.	.	.	.	.	.	.	.	.	.	.	.	.	.	.	.	.	.	.	.	.	.	.	8aaL	.
.	.	.	.	.	.	.	.	.	.	.	.	.	.	.	.	.	.	.	.	.	.	.	.	.	.	.	.	.	8ffJ	.
4G	.	4G	.	4c	.	4e	.	4g	.	4c	4G	.	4g	4e	jest	.	.	.	.	.	.	.	.	.	.	.	.	.	4gg	.
=47	=47	=47	=47	=47	=47	=47	=47	=47	=47	=47	=47	=47	=47	=47	=47	=47	=47	=47	=47	=47	=47	=47	=47	=47	=47	=47	=47	=47	=47	=47
2F	.	2F	.	2c	.	2f	.	2a	.	2c	2F	.	2a	2f	mój,	.	2.r	.	.	2.r	2.r	.	2.r	.	2.r	.	2.r	.	4.ccc	.
.	.	.	.	.	.	.	.	.	.	.	.	.	.	.	.	.	.	.	.	.	.	.	.	.	.	.	.	.	8r	.
4A	.	4A	.	4c	.	4f	.	4cc	.	4c	4A	.	4cc	4f	a	.	.	.	.	.	.	.	.	.	.	.	.	.	8ccc'L	.
.	.	.	.	.	.	.	.	.	.	.	.	.	.	.	.	.	.	.	.	.	.	.	.	.	.	.	.	.	16bb-L	.
.	.	.	.	.	.	.	.	.	.	.	.	.	.	.	.	.	.	.	.	.	.	.	.	.	.	.	.	.	16aaJJ	.
=48	=48	=48	=48	=48	=48	=48	=48	=48	=48	=48	=48	=48	=48	=48	=48	=48	=48	=48	=48	=48	=48	=48	=48	=48	=48	=48	=48	=48	=48	=48
2B-	.	2B-	.	4d	.	2f	.	2dd	.	2f	2B-	.	2dd	(4cc	ja	.	2.r	.	.	2.r	2.r	.	2.r	.	2.r	.	2.r	.	2ff	.
.	.	.	.	4c	.	.	.	.	.	.	.	.	.	4b-)	.	.	.	.	.	.	.	.	.	.	.	.	.	.	.	.
8B-L	.	8B-L	.	8B-L	.	8fL	.	8ddL	.	8B-L	8B-L	.	8ddL	8fL	jes-	.	.	.	.	.	.	.	.	.	.	.	.	.	8ffL	.
8AJ	.	8AJ	.	8cJ	.	8gJ	.	8ccJ	.	8cJ	8AJ	.	8ccJ	8gJ	-tem	.	.	.	.	.	.	.	.	.	.	.	.	.	[8ggJ	.
=49	=49	=49	=49	=49	=49	=49	=49	=49	=49	=49	=49	=49	=49	=49	=49	=49	=49	=49	=49	=49	=49	=49	=49	=49	=49	=49	=49	=49	=49	=49
2F	.	2F	.	2c	.	4g	.	2a	.	4c	4F	.	4a	4g	je-	.	2.r	.	.	2.r	2.r	.	2.r	.	2.r	.	2.r	.	8gg]	.
.	.	.	.	.	.	.	.	.	.	.	.	.	.	.	.	.	.	.	.	.	.	.	.	.	.	.	.	.	4.aa	.
.	.	.	.	.	.	4f	.	.	.	4c	4F	.	4a	4f	-go.	.	.	.	.	.	.	.	.	.	.	.	.	.	.	.
8FL	.	8FL	.	8cL	.	8fL	.	8aL	.	8cL	8FL	.	8aL	8fL	Mi-	.	.	.	.	.	.	.	.	.	.	.	.	.	8r	.
8EJ	.	8EJ	.	8cJ	.	8eJ	.	8gJ	.	8cJ	8EJ	.	8gJ	8eJ	-ły	.	.	.	.	.	.	.	.	.	.	.	.	.	16aaLL	.
.	.	.	.	.	.	.	.	.	.	.	.	.	.	.	.	.	.	.	.	.	.	.	.	.	.	.	.	.	16cccJJ	.
=50	=50	=50	=50	=50	=50	=50	=50	=50	=50	=50	=50	=50	=50	=50	=50	=50	=50	=50	=50	=50	=50	=50	=50	=50	=50	=50	=50	=50	=50	=50
2.D	.	2.D	.	2d	.	2f	.	2a	.	2d	2D	.	2a	2f	mój	.	2.r	.	.	2.r	2.r	.	2.r	.	2.r	.	2.r	.	4ddd	.
.	.	.	.	.	.	.	.	.	.	.	.	.	.	.	.	.	.	.	.	.	.	.	.	.	.	.	.	.	8fffL	.
.	.	.	.	.	.	.	.	.	.	.	.	.	.	.	.	.	.	.	.	.	.	.	.	.	.	.	.	.	8eeeJ	.
.	.	.	.	4d	.	4e	.	4g	.	4d	4D	.	4g	4e	jest	.	.	.	.	.	.	.	.	.	.	.	.	.	8dddL	.
.	.	.	.	.	.	.	.	.	.	.	.	.	.	.	.	.	.	.	.	.	.	.	.	.	.	.	.	.	8aaJ	.
=51	=51	=51	=51	=51	=51	=51	=51	=51	=51	=51	=51	=51	=51	=51	=51	=51	=51	=51	=51	=51	=51	=51	=51	=51	=51	=51	=51	=51	=51	=51
2.C	.	2.C	.	2A	.	2e	.	2a	.	2A	2C	.	2a	2e	mój,	.	2.r	.	.	2.r	2.r	.	2.r	.	2.r	.	2.r	.	8cccL	.
.	.	.	.	.	.	.	.	.	.	.	.	.	.	.	.	.	.	.	.	.	.	.	.	.	.	.	.	.	8dddJ	.
.	.	.	.	.	.	.	.	.	.	.	.	.	.	.	.	.	.	.	.	.	.	.	.	.	.	.	.	.	8cccL	.
.	.	.	.	.	.	.	.	.	.	.	.	.	.	.	.	.	.	.	.	.	.	.	.	.	.	.	.	.	8aaJ	.
.	.	.	.	4A	.	4e	.	4cc	.	4A	4C	.	4cc	4e	a	.	.	.	.	.	.	.	.	.	.	.	.	.	8eeL	.
.	.	.	.	.	.	.	.	.	.	.	.	.	.	.	.	.	.	.	.	.	.	.	.	.	.	.	.	.	8ccJ	.
=52	=52	=52	=52	=52	=52	=52	=52	=52	=52	=52	=52	=52	=52	=52	=52	=52	=52	=52	=52	=52	=52	=52	=52	=52	=52	=52	=52	=52	=52	=52
2.BB-	.	2.BB-	.	4c	.	4d	.	4f	.	4c	4BB-	.	4f	4d	ja	.	2.r	.	.	2.r	2.r	.	2.r	.	2.r	.	2.r	.	8ddL	.
.	.	.	.	.	.	.	.	.	.	.	.	.	.	.	.	.	.	.	.	.	.	.	.	.	.	.	.	.	8eeJ	.
.	.	.	.	4B-	.	4d	.	4f	.	4B-	4BB-	.	4f	4d	jes-	.	.	.	.	.	.	.	.	.	.	.	.	.	4.ff	.
.	.	.	.	4B-	.	4c	.	4g	.	4B-	4BB-	.	4g	4c	-tem	.	.	.	.	.	.	.	.	.	.	.	.	.	.	.
.	.	.	.	.	.	.	.	.	.	.	.	.	.	.	.	.	.	.	.	.	.	.	.	.	.	.	.	.	[8gg	.
=53	=53	=53	=53	=53	=53	=53	=53	=53	=53	=53	=53	=53	=53	=53	=53	=53	=53	=53	=53	=53	=53	=53	=53	=53	=53	=53	=53	=53	=53	=53
2F	.	2F	.	4B-	.	2c	.	2f	.	4B-	4F	.	4f	4c	je-	.	2.r	.	.	2.r	2.r	.	2.r	.	2.r	.	2.r	.	4gg]	.
.	.	.	.	4A	.	.	.	.	.	4A	4F	.	4f	4c	-go.	.	.	.	.	.	.	.	.	.	.	.	.	.	4ff	.
4r	.	8FL	p	8cL	p	8fL	p	8aL	p	8cL	8FL	p p	8aL	8fL	Mi-	p p	.	.	.	.	.	.	.	.	.	.	.	.	4r	.
.	.	8CJ	.	8cJ	.	8eJ	.	8gJ	.	8cJ	8CJ	.	8gJ	8eJ	-ły	.	.	.	.	.	.	.	.	.	.	.	.	.	.	.
=54	=54	=54	=54	=54	=54	=54	=54	=54	=54	=54	=54	=54	=54	=54	=54	=54	=54	=54	=54	=54	=54	=54	=54	=54	=54	=54	=54	=54	=54	=54
2.r	.	2F	.	2c	.	2f	.	2a	.	2c	2F	.	2a	2f	mój	.	2r	.	.	2.r	2.r	.	2.r	.	2.r	.	2.r	.	2.r	.
.	.	4G	.	4c	.	4e	.	4g	.	4c	4G	.	4g	4e	jest	.	8ccL	U-	.	.	.	.	.	.	.	.	.	.	.	.
.	.	.	.	.	.	.	.	.	.	.	.	.	.	.	.	.	8ddJ	-ko-	.	.	.	.	.	.	.	.	.	.	.	.
=55	=55	=55	=55	=55	=55	=55	=55	=55	=55	=55	=55	=55	=55	=55	=55	=55	=55	=55	=55	=55	=55	=55	=55	=55	=55	=55	=55	=55	=55	=55
2.r	.	2F	.	2c	.	2f	.	2a	.	2c	2F	.	2a	2f	mój,	.	4a	-cha-	.	2.r	2.r	.	2.r	.	2.r	.	2.r	.	2.r	.
.	.	.	.	.	.	.	.	.	.	.	.	.	.	.	.	.	4cc	-ny	.	.	.	.	.	.	.	.	.	.	.	.
.	.	4A	.	4c	.	4f	.	4cc	.	4c	4A	.	4cc	4f	a	.	4ff	mój	.	.	.	.	.	.	.	.	.	.	.	.
=56	=56	=56	=56	=56	=56	=56	=56	=56	=56	=56	=56	=56	=56	=56	=56	=56	=56	=56	=56	=56	=56	=56	=56	=56	=56	=56	=56	=56	=56	=56
2.r	.	2B-	.	4d	.	2f	.	2dd	.	2f	2B-	.	2dd	(4cc	ja	.	4dd	jest	.	2.r	2.r	.	2.r	.	2.r	.	2.r	.	2.r	.
.	.	.	.	4c	.	.	.	.	.	.	.	.	.	4b-)	.	.	4cc	pe-	.	.	.	.	.	.	.	.	.	.	.	.
.	.	8B-L	.	8B-L	.	8fL	.	8ddL	.	8B-L	8B-L	.	8ddL	8fL	jes-	.	(8b-L	-łen	.	.	.	.	.	.	.	.	.	.	.	.
.	.	8AJ	.	8cJ	.	8gJ	.	8ccJ	.	8cJ	8AJ	.	8ccJ	8gJ	-tem	.	8ccJ)	.	.	.	.	.	.	.	.	.	.	.	.	.
=57	=57	=57	=57	=57	=57	=57	=57	=57	=57	=57	=57	=57	=57	=57	=57	=57	=57	=57	=57	=57	=57	=57	=57	=57	=57	=57	=57	=57	=57	=57
2.r	.	2F	.	2c	.	4g	.	2a	.	4c	4F	.	4a	4g	je-	.	4cc	bla-	.	2.r	2.r	.	2.r	.	2.r	.	2.r	.	2.r	.
.	.	.	.	.	.	4f	.	.	.	4c	4F	.	4a	4f	-go.	.	4cc	-sku,	.	.	.	.	.	.	.	.	.	.	.	.
.	.	8FL	.	8cL	.	8fL	.	8aL	.	8cL	8FL	.	8aL	8fL	Mi-	.	4r	.	.	.	.	.	.	.	.	.	.	.	.	.
.	.	8EJ	.	8cJ	.	8eJ	.	8gJ	.	8cJ	8EJ	.	8gJ	8eJ	-ły	.	.	.	.	.	.	.	.	.	.	.	.	.	.	.
=58	=58	=58	=58	=58	=58	=58	=58	=58	=58	=58	=58	=58	=58	=58	=58	=58	=58	=58	=58	=58	=58	=58	=58	=58	=58	=58	=58	=58	=58	=58
2.r	.	2.D	.	2d	.	2f	.	2a	.	2d	2D	.	2a	2f	mój	.	4r	.	.	2.r	2.r	.	2.r	.	2.r	.	2.r	.	2.r	.
.	.	.	.	.	.	.	.	.	.	.	.	.	.	.	.	.	4dd	a	.	.	.	.	.	.	.	.	.	.	.	.
.	.	.	.	4d	.	4e	.	4g	.	4d	4D	.	4g	4e	jest	.	8ccL	mi-	.	.	.	.	.	.	.	.	.	.	.	.
.	.	.	.	.	.	.	.	.	.	.	.	.	.	.	.	.	8ddJ	-łość	.	.	.	.	.	.	.	.	.	.	.	.
=59	=59	=59	=59	=59	=59	=59	=59	=59	=59	=59	=59	=59	=59	=59	=59	=59	=59	=59	=59	=59	=59	=59	=59	=59	=59	=59	=59	=59	=59	=59
2.r	.	2.C	.	2A	.	2e	.	2a	.	2A	2C	.	2a	2e	mój,	.	4ee	je-	.	2.r	2.r	.	2.r	.	2.r	.	2.r	.	2.r	.
.	.	.	.	.	.	.	.	.	.	.	.	.	.	.	.	.	4.a	-go	.	.	.	.	.	.	.	.	.	.	.	.
.	.	.	.	4A	.	4e	.	4cc	.	4A	4C	.	4cc	4e	a	.	.	.	.	.	.	.	.	.	.	.	.	.	.	.
.	.	.	.	.	.	.	.	.	.	.	.	.	.	.	.	.	8a	przed-	.	.	.	.	.	.	.	.	.	.	.	.
=60	=60	=60	=60	=60	=60	=60	=60	=60	=60	=60	=60	=60	=60	=60	=60	=60	=60	=60	=60	=60	=60	=60	=60	=60	=60	=60	=60	=60	=60	=60
2.r	.	2.BB-	.	4c	.	4d	.	4f	.	4c	4BB-	.	4f	4d	ja	.	4b-	-niej-	.	2.r	2.r	.	2.r	.	2.r	.	2.r	.	2.r	.
.	.	.	.	4B-	.	4d	.	4f	.	4B-	4BB-	.	4f	4d	jes-	.	4a	-sza	.	.	.	.	.	.	.	.	.	.	.	.
.	.	.	.	4B-	.	4c	.	4g	.	4B-	4BB-	.	4g	4c	-tem	.	4g	od	.	.	.	.	.	.	.	.	.	.	.	.
=61	=61	=61	=61	=61	=61	=61	=61	=61	=61	=61	=61	=61	=61	=61	=61	=61	=61	=61	=61	=61	=61	=61	=61	=61	=61	=61	=61	=61	=61	=61
2r	.	2F	.	4B-	.	2c	.	2f	.	4B-	4F	.	4f	4c	je-	.	4g	wi-	.	2.r	2.r	.	2.r	.	2.r	.	2.r	.	2.r	.
.	.	.	.	4A	.	.	.	.	.	4A	4F	.	4f	4c	-go.	.	4a	-na.	.	.	.	.	.	.	.	.	.	.	.	.
8FL	.	8FL	mf	8cL	mf	8fL	mf	8aL	mf	8cL	8FL	mf mf	8aL	8fL	Mi-	mf	4r	.	.	.	.	.	.	.	.	.	.	.	.	.
8CJ	.	8CJ	.	8cJ	.	8eJ	.	8gJ	.	8cJ	8CJ	.	8gJ	8eJ	-ły	.	.	.	.	.	.	.	.	.	.	.	.	.	.	.
=62	=62	=62	=62	=62	=62	=62	=62	=62	=62	=62	=62	=62	=62	=62	=62	=62	=62	=62	=62	=62	=62	=62	=62	=62	=62	=62	=62	=62	=62	=62
2F	.	2F	.	2c	.	2f	.	2a	.	2c	2F	.	2a	2f	mój	.	2.r	.	.	2.r	2.r	.	8FFL	mf	2.r	.	2.r	.	2.r	.
.	.	.	.	.	.	.	.	.	.	.	.	.	.	.	.	.	.	.	.	.	.	.	8CJ	.	.	.	.	.	.	.
.	.	.	.	.	.	.	.	.	.	.	.	.	.	.	.	.	.	.	.	.	.	.	8FL	.	.	.	.	.	.	.
.	.	.	.	.	.	.	.	.	.	.	.	.	.	.	.	.	.	.	.	.	.	.	8AJ	.	.	.	.	.	.	.
4G	.	4G	.	4c	.	4e	.	4g	.	4c	4G	.	4g	4e	jest	.	.	.	.	.	.	.	8cL	.	.	.	.	.	.	.
.	.	.	.	.	.	.	.	.	.	.	.	.	.	.	.	.	.	.	.	.	.	.	8eJ	.	.	.	.	.	.	.
=63	=63	=63	=63	=63	=63	=63	=63	=63	=63	=63	=63	=63	=63	=63	=63	=63	=63	=63	=63	=63	=63	=63	=63	=63	=63	=63	=63	=63	=63	=63
2F	.	2F	.	2c	.	2f	.	2a	.	2c	2F	.	2a	2f	mój,	.	2.r	.	.	2.r	2.r	.	8f'L	.	2.r	.	2.r	.	2.r	.
.	.	.	.	.	.	.	.	.	.	.	.	.	.	.	.	.	.	.	.	.	.	.	16cL	.	.	.	.	.	.	.
.	.	.	.	.	.	.	.	.	.	.	.	.	.	.	.	.	.	.	.	.	.	.	16B-JJ	.	.	.	.	.	.	.
.	.	.	.	.	.	.	.	.	.	.	.	.	.	.	.	.	.	.	.	.	.	.	8AL	.	.	.	.	.	.	.
.	.	.	.	.	.	.	.	.	.	.	.	.	.	.	.	.	.	.	.	.	.	.	8FJ	.	.	.	.	.	.	.
4A	.	4A	.	4c	.	4f	.	4cc	.	4c	4A	.	4cc	4f	a	.	.	.	.	.	.	.	8CL	.	.	.	.	.	.	.
.	.	.	.	.	.	.	.	.	.	.	.	.	.	.	.	.	.	.	.	.	.	.	8AAJ	.	.	.	.	.	.	.
=64	=64	=64	=64	=64	=64	=64	=64	=64	=64	=64	=64	=64	=64	=64	=64	=64	=64	=64	=64	=64	=64	=64	=64	=64	=64	=64	=64	=64	=64	=64
2B-	.	2B-	.	4d	.	2f	.	2dd	.	2f	2B-	.	2dd	(4cc	ja	.	2.r	.	.	2.r	2.r	.	8BB-L	.	2.r	.	2.r	.	2.r	.
.	.	.	.	.	.	.	.	.	.	.	.	.	.	.	.	.	.	.	.	.	.	.	8FFJ	.	.	.	.	.	.	.
.	.	.	.	4c	.	.	.	.	.	.	.	.	.	4b-)	.	.	.	.	.	.	.	.	8BB-L	.	.	.	.	.	.	.
.	.	.	.	.	.	.	.	.	.	.	.	.	.	.	.	.	.	.	.	.	.	.	8DJ	.	.	.	.	.	.	.
8B-L	.	8B-L	.	8B-L	.	8fL	.	8ddL	.	8B-L	8B-L	.	8ddL	8fL	jes-	.	.	.	.	.	.	.	8B-L	.	.	.	.	.	.	.
8AJ	.	8AJ	.	8cJ	.	8gJ	.	8ccJ	.	8cJ	8AJ	.	8ccJ	8gJ	-tem	.	.	.	.	.	.	.	8AJ	.	.	.	.	.	.	.
=65	=65	=65	=65	=65	=65	=65	=65	=65	=65	=65	=65	=65	=65	=65	=65	=65	=65	=65	=65	=65	=65	=65	=65	=65	=65	=65	=65	=65	=65	=65
2F	.	2F	.	2c	.	4g	.	2a	.	4c	4F	.	4a	4g	je-	.	2.r	.	.	2.r	2.r	.	8F'L	.	2.r	.	2.r	.	2.r	.
.	.	.	.	.	.	.	.	.	.	.	.	.	.	.	.	.	.	.	.	.	.	.	8C'J	.	.	.	.	.	.	.
.	.	.	.	.	.	4f	.	.	.	4c	4F	.	4a	4f	-go.	.	.	.	.	.	.	.	4FF	.	.	.	.	.	.	.
8FL	.	8FL	.	8cL	.	8fL	.	8aL	.	8cL	8FL	.	8aL	8fL	Mi-	.	.	.	.	.	.	.	4r	.	.	.	.	.	.	.
8EJ	.	8EJ	.	8cJ	.	8eJ	.	8gJ	.	8cJ	8EJ	.	8gJ	8eJ	-ły	.	.	.	.	.	.	.	.	.	.	.	.	.	.	.
=66	=66	=66	=66	=66	=66	=66	=66	=66	=66	=66	=66	=66	=66	=66	=66	=66	=66	=66	=66	=66	=66	=66	=66	=66	=66	=66	=66	=66	=66	=66
2.D	.	2.D	.	2d	.	2f	.	2a	.	2d	2D	.	2a	2f	mój	.	2.r	.	.	2.r	2.r	.	8DDL	.	2.r	.	2.r	.	2.r	.
.	.	.	.	.	.	.	.	.	.	.	.	.	.	.	.	.	.	.	.	.	.	.	16FFL	.	.	.	.	.	.	.
.	.	.	.	.	.	.	.	.	.	.	.	.	.	.	.	.	.	.	.	.	.	.	16AAJJ	.	.	.	.	.	.	.
.	.	.	.	.	.	.	.	.	.	.	.	.	.	.	.	.	.	.	.	.	.	.	8DL	.	.	.	.	.	.	.
.	.	.	.	.	.	.	.	.	.	.	.	.	.	.	.	.	.	.	.	.	.	.	8FJ	.	.	.	.	.	.	.
.	.	.	.	4d	.	4e	.	4g	.	4d	4D	.	4g	4e	jest	.	.	.	.	.	.	.	16ALL	.	.	.	.	.	.	.
.	.	.	.	.	.	.	.	.	.	.	.	.	.	.	.	.	.	.	.	.	.	.	16G	.	.	.	.	.	.	.
.	.	.	.	.	.	.	.	.	.	.	.	.	.	.	.	.	.	.	.	.	.	.	16F	.	.	.	.	.	.	.
.	.	.	.	.	.	.	.	.	.	.	.	.	.	.	.	.	.	.	.	.	.	.	16DJJ	.	.	.	.	.	.	.
=67	=67	=67	=67	=67	=67	=67	=67	=67	=67	=67	=67	=67	=67	=67	=67	=67	=67	=67	=67	=67	=67	=67	=67	=67	=67	=67	=67	=67	=67	=67
2.C	.	2.C	.	2A	.	2e	.	2a	.	2A	2C	.	2a	2e	mój,	.	2.r	.	.	2.r	2.r	.	8CL	.	2.r	.	2.r	.	2.r	.
.	.	.	.	.	.	.	.	.	.	.	.	.	.	.	.	.	.	.	.	.	.	.	8AAJ	.	.	.	.	.	.	.
.	.	.	.	.	.	.	.	.	.	.	.	.	.	.	.	.	.	.	.	.	.	.	8EL	.	.	.	.	.	.	.
.	.	.	.	.	.	.	.	.	.	.	.	.	.	.	.	.	.	.	.	.	.	.	8CJ	.	.	.	.	.	.	.
.	.	.	.	4A	.	4e	.	4cc	.	4A	4C	.	4cc	4e	a	.	.	.	.	.	.	.	8AL	.	.	.	.	.	.	.
.	.	.	.	.	.	.	.	.	.	.	.	.	.	.	.	.	.	.	.	.	.	.	8EJ	.	.	.	.	.	.	.
=68	=68	=68	=68	=68	=68	=68	=68	=68	=68	=68	=68	=68	=68	=68	=68	=68	=68	=68	=68	=68	=68	=68	=68	=68	=68	=68	=68	=68	=68	=68
2.BB-	.	2.BB-	.	4c	.	4d	.	4f	.	4c	4BB-	.	4f	4d	ja	.	2.r	.	.	2.r	2.r	.	8BB-L	.	2.r	.	2.r	.	2.r	.
.	.	.	.	.	.	.	.	.	.	.	.	.	.	.	.	.	.	.	.	.	.	.	16FFL	.	.	.	.	.	.	.
.	.	.	.	.	.	.	.	.	.	.	.	.	.	.	.	.	.	.	.	.	.	.	16BB-JJ	.	.	.	.	.	.	.
.	.	.	.	4B-	.	4d	.	4f	.	4B-	4BB-	.	4f	4d	jes-	.	.	.	.	.	.	.	8DL	.	.	.	.	.	.	.
.	.	.	.	.	.	.	.	.	.	.	.	.	.	.	.	.	.	.	.	.	.	.	8FJ	.	.	.	.	.	.	.
.	.	.	.	4B-	.	4c	.	4g	.	4B-	4BB-	.	4g	4c	-tem	.	.	.	.	.	.	.	8B-'L	.	.	.	.	.	.	.
.	.	.	.	.	.	.	.	.	.	.	.	.	.	.	.	.	.	.	.	.	.	.	8BB-'J	.	.	.	.	.	.	.
=69	=69	=69	=69	=69	=69	=69	=69	=69	=69	=69	=69	=69	=69	=69	=69	=69	=69	=69	=69	=69	=69	=69	=69	=69	=69	=69	=69	=69	=69	=69
2F	.	2F	.	4B-	.	2c	.	2f	.	4B-	4F	.	4f	4c	je-	.	2.r	.	.	2.r	2.r	.	4FF	.	2.r	.	2.r	.	2.r	.
.	.	.	.	4A	.	.	.	.	.	4A	4F	.	4f	4c	-go.	.	.	.	.	.	.	.	4r	.	.	.	.	.	.	.
4r	.	8FL	p	8cL	p	8fL	p	8aL	p	8cL	8FL	p p	8aL	8fL	Mi-	p p	.	.	.	.	.	.	4r	.	.	.	.	.	.	.
.	.	8CJ	.	8cJ	.	8eJ	.	8gJ	.	8cJ	8CJ	.	8gJ	8eJ	-ły	.	.	.	.	.	.	.	.	.	.	.	.	.	.	.
=70	=70	=70	=70	=70	=70	=70	=70	=70	=70	=70	=70	=70	=70	=70	=70	=70	=70	=70	=70	=70	=70	=70	=70	=70	=70	=70	=70	=70	=70	=70
2.r	.	2F	.	2c	.	2f	.	2a	.	2c	2F	.	2a	2f	mój	.	2r	.	.	2.r	2.r	.	2.r	.	2.r	.	2.r	.	2.r	.
.	.	4G	.	4c	.	4e	.	4g	.	4c	4G	.	4g	4e	jest	.	8ccL	Po-	.	.	.	.	.	.	.	.	.	.	.	.
.	.	.	.	.	.	.	.	.	.	.	.	.	.	.	.	.	8b-J	-stać	.	.	.	.	.	.	.	.	.	.	.	.
=71	=71	=71	=71	=71	=71	=71	=71	=71	=71	=71	=71	=71	=71	=71	=71	=71	=71	=71	=71	=71	=71	=71	=71	=71	=71	=71	=71	=71	=71	=71
2.r	.	2F	.	2c	.	2f	.	2a	.	2c	2F	.	2a	2f	mój,	.	4a	je-	.	2.r	2.r	.	2.r	.	2.r	.	2.r	.	2.r	.
.	.	.	.	.	.	.	.	.	.	.	.	.	.	.	.	.	4.cc	-go	.	.	.	.	.	.	.	.	.	.	.	.
.	.	4A	.	4c	.	4f	.	4cc	.	4c	4A	.	4cc	4f	a	.	.	.	.	.	.	.	.	.	.	.	.	.	.	.
.	.	.	.	.	.	.	.	.	.	.	.	.	.	.	.	.	8cc	jak	.	.	.	.	.	.	.	.	.	.	.	.
=72	=72	=72	=72	=72	=72	=72	=72	=72	=72	=72	=72	=72	=72	=72	=72	=72	=72	=72	=72	=72	=72	=72	=72	=72	=72	=72	=72	=72	=72	=72
2.r	.	2B-	.	4d	.	2f	.	2dd	.	2f	2B-	.	2dd	(4cc	ja	.	4b-	ced-	.	2.r	2.r	.	2.r	.	2.r	.	2.r	.	2.r	.
.	.	.	.	4c	.	.	.	.	.	.	.	.	.	4b-)	.	.	4cc	-ry	.	.	.	.	.	.	.	.	.	.	.	.
.	.	8B-L	.	8B-L	.	8fL	.	8ddL	.	8B-L	8B-L	.	8ddL	8fL	jes-	.	4dd	Li-	.	.	.	.	.	.	.	.	.	.	.	.
.	.	8AJ	.	8cJ	.	8gJ	.	8ccJ	.	8cJ	8AJ	.	8ccJ	8gJ	-tem	.	.	.	.	.	.	.	.	.	.	.	.	.	.	.
=73	=73	=73	=73	=73	=73	=73	=73	=73	=73	=73	=73	=73	=73	=73	=73	=73	=73	=73	=73	=73	=73	=73	=73	=73	=73	=73	=73	=73	=73	=73
2.r	.	2F	.	2c	.	4g	.	2a	.	4c	4F	.	4a	4g	je-	.	(8ddL	-ba-	.	2.r	2.r	.	2.r	.	2.r	.	2.r	.	2.r	.
.	.	.	.	.	.	.	.	.	.	.	.	.	.	.	.	.	8ccJ)	.	.	.	.	.	.	.	.	.	.	.	.	.
.	.	.	.	.	.	4f	.	.	.	4c	4F	.	4a	4f	-go.	.	4.cc	-nu,	.	.	.	.	.	.	.	.	.	.	.	.
.	.	8FL	.	8cL	.	8fL	.	8aL	.	8cL	8FL	.	8aL	8fL	Mi-	.	.	.	.	.	.	.	.	.	.	.	.	.	.	.
.	.	8EJ	.	8cJ	.	8eJ	.	8gJ	.	8cJ	8EJ	.	8gJ	8eJ	-ły	.	8r	.	.	.	.	.	.	.	.	.	.	.	.	.
=74	=74	=74	=74	=74	=74	=74	=74	=74	=74	=74	=74	=74	=74	=74	=74	=74	=74	=74	=74	=74	=74	=74	=74	=74	=74	=74	=74	=74	=74	=74
2.r	.	2.D	.	2d	.	2f	.	2a	.	2d	2D	.	2a	2f	mój	.	8ddL	je-	.	2.r	2.r	.	2.r	.	2.r	.	2.r	.	2.r	.
.	.	.	.	.	.	.	.	.	.	.	.	.	.	.	.	.	8eeJ	-go	.	.	.	.	.	.	.	.	.	.	.	.
.	.	.	.	.	.	.	.	.	.	.	.	.	.	.	.	.	4ff	głos	.	.	.	.	.	.	.	.	.	.	.	.
.	.	.	.	4d	.	4e	.	4g	.	4d	4D	.	4g	4e	jest	.	8r	.	.	.	.	.	.	.	.	.	.	.	.	.
.	.	.	.	.	.	.	.	.	.	.	.	.	.	.	.	.	8dd	prze-	.	.	.	.	.	.	.	.	.	.	.	.
=75	=75	=75	=75	=75	=75	=75	=75	=75	=75	=75	=75	=75	=75	=75	=75	=75	=75	=75	=75	=75	=75	=75	=75	=75	=75	=75	=75	=75	=75	=75
2.r	.	2.C	.	2A	.	2e	.	2a	.	2A	2C	.	2a	2e	mój,	.	(8eeL	-słod-	.	2.r	2.r	.	2.r	.	2.r	.	2.r	.	2.r	.
.	.	.	.	.	.	.	.	.	.	.	.	.	.	.	.	.	8ddJ)	.	.	.	.	.	.	.	.	.	.	.	.	.
.	.	.	.	.	.	.	.	.	.	.	.	.	.	.	.	.	4cc	-ki,	.	.	.	.	.	.	.	.	.	.	.	.
.	.	.	.	4A	.	4e	.	4cc	.	4A	4C	.	4cc	4e	a	.	8r	.	.	.	.	.	.	.	.	.	.	.	.	.
.	.	.	.	.	.	.	.	.	.	.	.	.	.	.	.	.	8a	a	.	.	.	.	.	.	.	.	.	.	.	.
=76	=76	=76	=76	=76	=76	=76	=76	=76	=76	=76	=76	=76	=76	=76	=76	=76	=76	=76	=76	=76	=76	=76	=76	=76	=76	=76	=76	=76	=76	=76
2.r	.	2.BB-	.	4c	.	4d	.	4f	.	4c	4BB-	.	4f	4d	ja	.	8b-L	ca-	.	2.r	2.r	.	2.r	.	2.r	.	2.r	.	2.r	.
.	.	.	.	.	.	.	.	.	.	.	.	.	.	.	.	.	8ccJ	-ły	.	.	.	.	.	.	.	.	.	.	.	.
.	.	.	.	4B-	.	4d	.	4f	.	4B-	4BB-	.	4f	4d	jes-	.	8ddL	pe-	.	.	.	.	.	.	.	.	.	.	.	.
.	.	.	.	.	.	.	.	.	.	.	.	.	.	.	.	.	8ccJ	-łen	.	.	.	.	.	.	.	.	.	.	.	.
.	.	.	.	4B-	.	4c	.	4g	.	4B-	4BB-	.	4g	4c	-tem	.	8ddL	jest	.	.	.	.	.	.	.	.	.	.	.	.
.	.	.	.	.	.	.	.	.	.	.	.	.	.	.	.	.	8ffJ	po-	.	.	.	.	.	.	.	.	.	.	.	.
=77	=77	=77	=77	=77	=77	=77	=77	=77	=77	=77	=77	=77	=77	=77	=77	=77	=77	=77	=77	=77	=77	=77	=77	=77	=77	=77	=77	=77	=77	=77
2r	.	2F	.	4B-	.	2c	.	2f	.	4B-	4F	.	4f	4c	je-	.	(8ggL	-wa-	.	2.r	2.r	.	2.r	.	2.r	.	2.r	.	2.r	.
.	.	.	.	.	.	.	.	.	.	.	.	.	.	.	.	.	8ffJ)	.	.	.	.	.	.	.	.	.	.	.	.	.
.	.	.	.	4A	.	.	.	.	.	4A	4F	.	4f	4c	-go.	.	4ff	-bu!	.	.	.	.	.	.	.	.	.	.	.	.
4r	.	4r	.	4r	.	4r	.	4r	.	8cL	8FL	f f	8aL	8fL	Mi-	f f	4r	.	.	.	.	.	.	.	.	.	.	.	.	.
.	.	.	.	.	.	.	.	.	.	8cJ	8CJ	.	8gJ	8eJ	-ły	.	.	.	.	.	.	.	.	.	.	.	.	.	.	.
=78	=78	=78	=78	=78	=78	=78	=78	=78	=78	=78	=78	=78	=78	=78	=78	=78	=78	=78	=78	=78	=78	=78	=78	=78	=78	=78	=78	=78	=78	=78
2.r	.	2.r	.	2.r	.	2.r	.	2.r	.	2c	2F	.	2a	2f	mój	.	2.r	.	.	2.r	2.r	.	2.r	.	2.r	.	2.r	.	2.r	.
.	.	.	.	.	.	.	.	.	.	4c	4G	.	4g	4e	jest	.	.	.	.	.	.	.	.	.	.	.	.	.	.	.
=79	=79	=79	=79	=79	=79	=79	=79	=79	=79	=79	=79	=79	=79	=79	=79	=79	=79	=79	=79	=79	=79	=79	=79	=79	=79	=79	=79	=79	=79	=79
2.r	.	2.r	.	2.r	.	2.r	.	2.r	.	2c	2F	.	2a	2f	mój,	.	2.r	.	.	2.r	2.r	.	2.r	.	2.r	.	2.r	.	2.r	.
.	.	.	.	.	.	.	.	.	.	4c	4A	.	4cc	4f	a	.	.	.	.	.	.	.	.	.	.	.	.	.	.	.
=80	=80	=80	=80	=80	=80	=80	=80	=80	=80	=80	=80	=80	=80	=80	=80	=80	=80	=80	=80	=80	=80	=80	=80	=80	=80	=80	=80	=80	=80	=80
2.r	.	2.r	.	2.r	.	2.r	.	2.r	.	2f	2B-	.	2dd	(4cc	ja	.	2.r	.	.	2.r	2.r	.	2.r	.	2.r	.	2.r	.	2.r	.
.	.	.	.	.	.	.	.	.	.	.	.	.	.	4b-)	.	.	.	.	.	.	.	.	.	.	.	.	.	.	.	.
.	.	.	.	.	.	.	.	.	.	8B-L	8B-L	.	8ddL	8fL	jes-	.	.	.	.	.	.	.	.	.	.	.	.	.	.	.
.	.	.	.	.	.	.	.	.	.	8cJ	8AJ	.	8ccJ	8gJ	-tem	.	.	.	.	.	.	.	.	.	.	.	.	.	.	.
=81	=81	=81	=81	=81	=81	=81	=81	=81	=81	=81	=81	=81	=81	=81	=81	=81	=81	=81	=81	=81	=81	=81	=81	=81	=81	=81	=81	=81	=81	=81
8r	.	8r	.	4r	.	4.r	.	2r	.	4c	4F	.	4a	4g	je-	.	2.r	.	.	2.r	2.r	.	2.r	.	2.r	.	2r	.	2.r	.
8f	mf	8f	mf >	.	.	.	.	.	.	.	.	.	.	.	.	.	.	.	.	.	.	.	.	.	.	.	.	.	.	.
8cL	>	8cL	.	8aL	mf	.	.	.	.	4c	4F	.	4a	4f	-go.	.	.	.	.	.	.	.	.	.	.	.	.	.	.	.
8AJ	.	8AJ	.	8fJ	>	8a	mf >	.	.	.	.	.	.	.	.	.	.	.	.	.	.	.	.	.	.	.	.	.	.	.
8FL	.	8FL	.	8cL	.	8fL	.	8aL	mf	8cL	8FL	mf mf >	8aL	8fL	Mi-	mf mf >	.	.	.	.	.	.	.	.	.	.	8aL	mf >	.	.
8EJ	.	8EJ	.	8cJ	.	8eJ	.	8gJ	.	8cJ	8EJ	.	8gJ	8eJ	-ły	.	.	.	.	.	.	.	.	.	.	.	8gJ	.	.	.
=82	=82	=82	=82	=82	=82	=82	=82	=82	=82	=82	=82	=82	=82	=82	=82	=82	=82	=82	=82	=82	=82	=82	=82	=82	=82	=82	=82	=82	=82	=82
2.D	.	2.D	.	2d	.	2f	.	2a	.	2d	2D	.	2a	2f	mój	.	2.r	.	.	2.r	2.r	.	2.r	.	2.r	.	2a	.	2.r	.
.	.	.	.	4d	.	4e	.	4g	.	4d	4D	.	4g	4e	jest	.	.	.	.	.	.	.	.	.	.	.	4g	.	.	.
=83	=83	=83	=83	=83	=83	=83	=83	=83	=83	=83	=83	=83	=83	=83	=83	=83	=83	=83	=83	=83	=83	=83	=83	=83	=83	=83	=83	=83	=83	=83
2.C	.	2.C	.	2A	.	2e	.	2a	.	2A	2C	.	2a	2e	mój,	.	2.r	.	.	2.r	2.r	.	2.r	.	2.r	.	2a	.	2.r	.
.	.	.	.	4A	.	4e	.	4cc	.	4A	4C	.	4cc	4e	a	.	.	.	.	.	.	.	.	.	.	.	4cc	.	.	.
=84	=84	=84	=84	=84	=84	=84	=84	=84	=84	=84	=84	=84	=84	=84	=84	=84	=84	=84	=84	=84	=84	=84	=84	=84	=84	=84	=84	=84	=84	=84
2.BB-	]]	2.BB-	]]	4c	.	4d	.	4f	.	4c	4BB-	.	4f	4d	ja	.	2.r	.	.	2.r	2.r	.	2.r	.	2.r	.	4f	.	2.r	.
.	.	.	.	4B-	.	4d	.	4f	.	4B-	4BB-	.	4f	4d	jes-	.	.	.	.	.	.	.	.	.	.	.	4f	.	.	.
.	.	.	.	4B-	]]	4c	]]	4g	.	4B-	4BB-	.	4g	4c	-tem	.	.	.	.	.	.	.	.	.	.	.	4g	]]	.	.
=85	=85	=85	=85	=85	=85	=85	=85	=85	=85	=85	=85	=85	=85	=85	=85	=85	=85	=85	=85	=85	=85	=85	=85	=85	=85	=85	=85	=85	=85	=85
2FZ	p	2FZ	p	4B-	p	2cZ	p	2fZ	p	4B-	4F	] p p	4f	4c	je-	p p	2.r	.	.	2.r	2.r	.	2.r	.	2r	.	2fZ	p	2.r	.
.	.	.	.	4AZ	.	.	.	.	.	4AZ	4FZ	.	4fZ	4cZ	-go.	]	.	.	.	.	.	.	.	.	.	.	.	.	.	.
4r	.	4r	.	4r	.	4r	.	4r	.	4r	4r	.	4r	4r	.	.	.	.	.	.	.	.	.	.	8aL	.	4r	.	.	.
.	.	.	.	.	.	.	.	.	.	.	.	.	.	.	.	.	.	.	.	.	.	.	.	.	8gJ	.	.	.	.	.
*	*	*	*	*	*	*	*	*	*	*v	*v	*	*	*	*	*	*	*	*	*	*	*	*	*	*	*	*	*	*	*
*	*	*	*	*	*	*	*	*	*	*	*	*v	*v	*	*	*	*	*	*	*	*	*	*	*	*	*	*	*	*
=86||	=86||	=86||	=86||	=86||	=86||	=86||	=86||	=86||	=86||	=86||	=86||	=86||	=86||	=86||	=86||	=86||	=86||	=86||	=86||	=86||	=86||	=86||	=86||	=86||	=86||	=86||	=86||	=86||
2.r	.	2.r	.	2.r	.	2.r	.	2.r	.	2.r	.	2.r	.	.	2.r	.	.	2.F	8r	.	2.r	.	2f	.	2.r	.	2.r	.
.	.	.	.	.	.	.	.	.	.	.	.	.	.	.	.	.	.	.	8cL	.	.	.	.	.	.	.	.	.
.	.	.	.	.	.	.	.	.	.	.	.	.	.	.	.	.	.	.	8f	.	.	.	.	.	.	.	.	.
.	.	.	.	.	.	.	.	.	.	.	.	.	.	.	.	.	.	.	8aJ	.	.	.	.	.	.	.	.	.
.	.	.	.	.	.	.	.	.	.	.	.	.	.	.	.	.	.	.	8ccL	.	.	.	4g	.	.	.	.	.
.	.	.	.	.	.	.	.	.	.	.	.	.	.	.	.	.	.	.	8ffJ	.	.	.	.	.	.	.	.	.
=87	=87	=87	=87	=87	=87	=87	=87	=87	=87	=87	=87	=87	=87	=87	=87	=87	=87	=87	=87	=87	=87	=87	=87	=87	=87	=87	=87	=87
2.r	.	2.r	.	2.r	.	2.r	.	2.r	.	2.r	.	2.r	.	.	2.r	.	.	2.F	8r	.	2.r	.	4.a	.	2.r	.	2.r	.
.	.	.	.	.	.	.	.	.	.	.	.	.	.	.	.	.	.	.	8cL	.	.	.	.	.	.	.	.	.
.	.	.	.	.	.	.	.	.	.	.	.	.	.	.	.	.	.	.	8f	.	.	.	.	.	.	.	.	.
.	.	.	.	.	.	.	.	.	.	.	.	.	.	.	.	.	.	.	8aJ	.	.	.	8cc	.	.	.	.	.
.	.	.	.	.	.	.	.	.	.	.	.	.	.	.	.	.	.	.	8ccL	.	.	.	8b-L	.	.	.	.	.
.	.	.	.	.	.	.	.	.	.	.	.	.	.	.	.	.	.	.	8ffJ	.	.	.	8aJ	.	.	.	.	.
=88	=88	=88	=88	=88	=88	=88	=88	=88	=88	=88	=88	=88	=88	=88	=88	=88	=88	=88	=88	=88	=88	=88	=88	=88	=88	=88	=88	=88
2.r	.	2.r	.	2.r	.	2.r	.	2.r	.	2.r	.	2.r	.	.	2.r	.	.	2.F	8r	.	2.r	.	4f	.	2.r	.	2.r	.
.	.	.	.	.	.	.	.	.	.	.	.	.	.	.	.	.	.	.	8dL	.	.	.	.	.	.	.	.	.
.	.	.	.	.	.	.	.	.	.	.	.	.	.	.	.	.	.	.	8f	.	.	.	4dd	.	.	.	.	.
.	.	.	.	.	.	.	.	.	.	.	.	.	.	.	.	.	.	.	8b-J	.	.	.	.	.	.	.	.	.
.	.	.	.	.	.	.	.	.	.	.	.	.	.	.	.	.	.	.	8ddL	.	.	.	4cc	.	.	.	.	.
.	.	.	.	.	.	.	.	.	.	.	.	.	.	.	.	.	.	.	8ffJ	.	.	.	.	.	.	.	.	.
=89	=89	=89	=89	=89	=89	=89	=89	=89	=89	=89	=89	=89	=89	=89	=89	=89	=89	=89	=89	=89	=89	=89	=89	=89	=89	=89	=89	=89
2.r	.	2.r	.	2.r	.	2.r	.	2.r	.	2.r	.	2.r	.	.	2.r	.	.	2F	8r	.	2.r	.	4.a	.	2.r	.	2.r	.
.	.	.	.	.	.	.	.	.	.	.	.	.	.	.	.	.	.	.	8cL	.	.	.	.	.	.	.	.	.
.	.	.	.	.	.	.	.	.	.	.	.	.	.	.	.	.	.	.	8f	.	.	.	.	.	.	.	.	.
.	.	.	.	.	.	.	.	.	.	.	.	.	.	.	.	.	.	.	8aJ	.	.	.	8r	.	.	.	.	.
.	.	.	.	.	.	.	.	.	.	.	.	.	.	.	.	.	.	4E	8ccL	.	.	.	8aL	.	.	.	.	.
.	.	.	.	.	.	.	.	.	.	.	.	.	.	.	.	.	.	.	8ggJ	.	.	.	8ccJ	.	.	.	.	.
=90	=90	=90	=90	=90	=90	=90	=90	=90	=90	=90	=90	=90	=90	=90	=90	=90	=90	=90	=90	=90	=90	=90	=90	=90	=90	=90	=90	=90
*	*	*	*	*	*	*	*	*	*	*	*	*	*	*	*	*	*	*^	*	*	*	*	*	*	*	*	*	*
2.r	.	2.r	.	2.r	.	2.r	.	2.r	.	2.r	.	2.r	.	.	2.r	.	.	2D	8r	8aa	.	2.r	.	4dd	.	2.r	.	2.r	.
.	.	.	.	.	.	.	.	.	.	.	.	.	.	.	.	.	.	.	8AL	8r	.	.	.	.	.	.	.	.	.
.	.	.	.	.	.	.	.	.	.	.	.	.	.	.	.	.	.	.	8dJ	8r	.	.	.	4a	.	.	.	.	.
.	.	.	.	.	.	.	.	.	.	.	.	.	.	.	.	.	.	.	8r	8fL	.	.	.	.	.	.	.	.	.
.	.	.	.	.	.	.	.	.	.	.	.	.	.	.	.	.	.	4D	4r	8dd	.	.	.	8r	.	.	.	.	.
.	.	.	.	.	.	.	.	.	.	.	.	.	.	.	.	.	.	.	.	8aaJ	.	.	.	8dd	.	.	.	.	.
=91	=91	=91	=91	=91	=91	=91	=91	=91	=91	=91	=91	=91	=91	=91	=91	=91	=91	=91	=91	=91	=91	=91	=91	=91	=91	=91	=91	=91	=91
2.r	.	2.r	.	2.r	.	2.r	.	2.r	.	2.r	.	2.r	.	.	2.r	.	.	2C	8r	8ee	.	2.r	.	4ee	.	2.r	.	2.r	.
.	.	.	.	.	.	.	.	.	.	.	.	.	.	.	.	.	.	.	8AL	8r	.	.	.	.	.	.	.	.	.
.	.	.	.	.	.	.	.	.	.	.	.	.	.	.	.	.	.	.	8cJ	8r	.	.	.	4a	.	.	.	.	.
.	.	.	.	.	.	.	.	.	.	.	.	.	.	.	.	.	.	.	8r	8eL	.	.	.	.	.	.	.	.	.
.	.	.	.	.	.	.	.	.	.	.	.	.	.	.	.	.	.	4C	4r	8a	.	.	.	8r	.	.	.	.	.
.	.	.	.	.	.	.	.	.	.	.	.	.	.	.	.	.	.	.	.	8eeJ	.	.	.	[8cc	.	.	.	.	.
=92	=92	=92	=92	=92	=92	=92	=92	=92	=92	=92	=92	=92	=92	=92	=92	=92	=92	=92	=92	=92	=92	=92	=92	=92	=92	=92	=92	=92	=92
2.r	.	2.r	.	2.r	.	2.r	.	2.r	.	2.r	.	2.r	.	.	2.r	.	.	2BB-	8r	8dd	.	2.r	.	4cc]	.	2.r	.	2.r	.
.	.	.	.	.	.	.	.	.	.	.	.	.	.	.	.	.	.	.	8F	8r	.	.	.	.	.	.	.	.	.
.	.	.	.	.	.	.	.	.	.	.	.	.	.	.	.	.	.	.	8B-L	4r	.	.	.	4b-	.	.	.	.	.
.	.	.	.	.	.	.	.	.	.	.	.	.	.	.	.	.	.	.	8dJ	.	.	.	.	.	.	.	.	.	.
.	.	.	.	.	.	.	.	.	.	.	.	.	.	.	.	.	.	4BB-	4r	8ddL	.	.	.	4a	.	.	.	.	.
.	.	.	.	.	.	.	.	.	.	.	.	.	.	.	.	.	.	.	.	8fJ	.	.	.	.	.	.	.	.	.
=93	=93	=93	=93	=93	=93	=93	=93	=93	=93	=93	=93	=93	=93	=93	=93	=93	=93	=93	=93	=93	=93	=93	=93	=93	=93	=93	=93	=93	=93
2r	.	2r	.	2r	.	2r	.	2.r	.	2.r	.	2.r	.	.	2.r	.	.	2C	2.r	8ccL	.	2.r	.	2g	.	2.r	.	2.r	.
.	.	.	.	.	.	.	.	.	.	.	.	.	.	.	.	.	.	.	.	16gL	.	.	.	.	.	.	.	.	.
.	.	.	.	.	.	.	.	.	.	.	.	.	.	.	.	.	.	.	.	16fJJ	.	.	.	.	.	.	.	.	.
.	.	.	.	.	.	.	.	.	.	.	.	.	.	.	.	.	.	.	.	16eLL	.	.	.	.	.	.	.	.	.
.	.	.	.	.	.	.	.	.	.	.	.	.	.	.	.	.	.	.	.	16d	.	.	.	.	.	.	.	.	.
.	.	.	.	.	.	.	.	.	.	.	.	.	.	.	.	.	.	.	.	16c	.	.	.	.	.	.	.	.	.
.	.	.	.	.	.	.	.	.	.	.	.	.	.	.	.	.	.	.	.	16B-JJ	.	.	.	.	.	.	.	.	.
!LO:TX:a:t=pizz.	!	!	!	!	!	!	!	!	!	!	!	!	!	!	!	!	!	!	!	!	!	!	!	!	!	!	!	!	!
4C	f	4C	f	8AL	f	8fL	f	.	.	.	.	.	.	.	.	.	.	16ALL	.	8r	.	.	.	4r	.	.	.	.	.
.	.	.	.	.	.	.	.	.	.	.	.	.	.	.	.	.	.	16G	.	.	.	.	.	.	.	.	.	.	.
.	.	.	.	8B-J	.	8gJ	.	.	.	.	.	.	.	.	.	.	.	16F	.	8r	.	.	.	.	.	.	.	.	.
.	.	.	.	.	.	.	.	.	.	.	.	.	.	.	.	.	.	16EJJ	.	.	.	.	.	.	.	.	.	.	.
=94	=94	=94	=94	=94	=94	=94	=94	=94	=94	=94	=94	=94	=94	=94	=94	=94	=94	=94	=94	=94	=94	=94	=94	=94	=94	=94	=94	=94	=94
4F	.	2F	.	2.c	.	2a	.	2.r	.	2.r	.	2.r	.	.	2.r	.	.	4F	2.r	4r	f	2.r	.	2.r	.	2.r	.	2.r	.
4.r	.	.	.	.	.	.	.	.	.	.	.	.	.	.	.	.	.	4r	.	4ff	.	.	.	.	.	.	.	.	.
.	.	4E	.	.	.	4g	.	.	.	.	.	.	.	.	.	.	.	4r	.	4r	.	.	.	.	.	.	.	.	.
8E	.	.	.	.	.	.	.	.	.	.	.	.	.	.	.	.	.	.	.	.	.	.	.	.	.	.	.	.	.
*	*	*	*	*	*	*	*	*	*	*	*	*	*	*	*	*	*	*v	*v	*	*	*	*	*	*	*	*	*	*
=95	=95	=95	=95	=95	=95	=95	=95	=95	=95	=95	=95	=95	=95	=95	=95	=95	=95	=95	=95	=95	=95	=95	=95	=95	=95	=95	=95	=95
4F	.	2.F	.	2A	.	2cc	.	2.r	.	2.r	.	2.r	.	.	2.r	.	.	4.r	4.r	.	2.r	.	2.r	.	2.r	.	2.r	.
4.r	.	.	.	.	.	.	.	.	.	.	.	.	.	.	.	.	.	.	.	.	.	.	.	.	.	.	.	.
.	.	.	.	.	.	.	.	.	.	.	.	.	.	.	.	.	.	8c	8f	.	.	.	.	.	.	.	.	.
.	.	.	.	8GL	.	8b-L	.	.	.	.	.	.	.	.	.	.	.	8FL	8aL	.	.	.	.	.	.	.	.	.
16ALL	.	.	.	8AJ	.	8aJ	.	.	.	.	.	.	.	.	.	.	.	8AAJ	8ccJ	.	.	.	.	.	.	.	.	.
16FJJ	.	.	.	.	.	.	.	.	.	.	.	.	.	.	.	.	.	.	.	.	.	.	.	.	.	.	.	.
=96	=96	=96	=96	=96	=96	=96	=96	=96	=96	=96	=96	=96	=96	=96	=96	=96	=96	=96	=96	=96	=96	=96	=96	=96	=96	=96	=96	=96
4BB-	.	2.BB-	.	2d	.	2f	.	2.r	.	2.r	.	2.r	.	.	2.r	.	.	4BB-: 4F: 4B-:	4d: 4f: 4b-: 4dd:	.	2.r	.	2.r	.	2.r	.	2.r	.
4.r	.	.	.	.	.	.	.	.	.	.	.	.	.	.	.	.	.	4r	4r	.	.	.	.	.	.	.	.	.
.	.	.	.	4c	.	4g	.	.	.	.	.	.	.	.	.	.	.	4r	8r	.	.	.	.	.	.	.	.	.
8BB-	.	.	.	.	.	.	.	.	.	.	.	.	.	.	.	.	.	.	16ddLL	.	.	.	.	.	.	.	.	.
.	.	.	.	.	.	.	.	.	.	.	.	.	.	.	.	.	.	.	16eeJJ	.	.	.	.	.	.	.	.	.
=97	=97	=97	=97	=97	=97	=97	=97	=97	=97	=97	=97	=97	=97	=97	=97	=97	=97	=97	=97	=97	=97	=97	=97	=97	=97	=97	=97	=97
4F	.	2F	.	8cL	.	2a	.	2r	.	2.r	.	2.r	.	.	2.r	.	.	4F: 4c:	4f: 4a: 4cc: 4ff:	.	2.r	.	2.r	.	2.r	.	2.r	.
.	.	.	.	8dJ	.	.	.	.	.	.	.	.	.	.	.	.	.	.	.	.	.	.	.	.	.	.	.	.
4r	.	.	.	8cL	.	.	.	.	.	.	.	.	.	.	.	.	.	4r	2r	.	.	.	.	.	.	.	.	.
.	.	.	.	8B-J	.	.	.	.	.	.	.	.	.	.	.	.	.	.	.	.	.	.	.	.	.	.	.	.
4E	.	4E	.	8GL	.	4g	.	8ddL	f	.	.	.	.	.	.	.	.	8r	.	.	.	.	.	.	.	.	.	.
.	.	.	.	8cJ	.	.	.	8eeJ	.	.	.	.	.	.	.	.	.	8A	.	.	.	.	.	.	.	.	.	.
=98	=98	=98	=98	=98	=98	=98	=98	=98	=98	=98	=98	=98	=98	=98	=98	=98	=98	=98	=98	=98	=98	=98	=98	=98	=98	=98	=98	=98
4D	.	2.D	.	2.d	.	4.a	.	4.ff	.	2.r	.	2.r	.	.	2.r	.	.	4D	4r	.	2.r	.	2.r	.	2.r	.	2.r	.
4r	.	.	.	.	.	.	.	.	.	.	.	.	.	.	.	.	.	4r	4ff	.	.	.	.	.	.	.	.	.
.	.	.	.	.	.	8g	.	8ee	.	.	.	.	.	.	.	.	.	.	.	.	.	.	.	.	.	.	.	.
16FKL	.	.	.	.	.	8aL	.	8ffL	.	.	.	.	.	.	.	.	.	4r	4r	.	.	.	.	.	.	.	.	.
8D	.	.	.	.	.	.	.	.	.	.	.	.	.	.	.	.	.	.	.	.	.	.	.	.	.	.	.	.
.	.	.	.	.	.	8b-J	.	8ggJ	.	.	.	.	.	.	.	.	.	.	.	.	.	.	.	.	.	.	.	.
16CJk	.	.	.	.	.	.	.	.	.	.	.	.	.	.	.	.	.	.	.	.	.	.	.	.	.	.	.	.
=99	=99	=99	=99	=99	=99	=99	=99	=99	=99	=99	=99	=99	=99	=99	=99	=99	=99	=99	=99	=99	=99	=99	=99	=99	=99	=99	=99	=99
4AA	.	2.AA	.	4e	.	8ccL	.	8aaL	.	2.r	.	2.r	.	.	2.r	.	.	2.r	2r	.	2.r	.	2.r	.	2.r	.	2.r	.
.	.	.	.	.	.	8bnJ	.	8ggJ	.	.	.	.	.	.	.	.	.	.	.	.	.	.	.	.	.	.	.	.
4r	.	.	.	4c	.	8aL	.	8ffL	.	.	.	.	.	.	.	.	.	.	.	.	.	.	.	.	.	.	.	.
.	.	.	.	.	.	8gJ	.	8eeJ	.	.	.	.	.	.	.	.	.	.	.	.	.	.	.	.	.	.	.	.
4AA	.	.	.	4A	.	8fL	.	8ddL	.	.	.	.	.	.	.	.	.	.	16eLL	.	.	.	.	.	.	.	.	.
.	.	.	.	.	.	.	.	.	.	.	.	.	.	.	.	.	.	.	16g	.	.	.	.	.	.	.	.	.
.	.	.	.	.	.	8eJ	.	8ccJ	.	.	.	.	.	.	.	.	.	.	16a	.	.	.	.	.	.	.	.	.
.	.	.	.	.	.	.	.	.	.	.	.	.	.	.	.	.	.	.	16ccJJ	.	.	.	.	.	.	.	.	.
=100	=100	=100	=100	=100	=100	=100	=100	=100	=100	=100	=100	=100	=100	=100	=100	=100	=100	=100	=100	=100	=100	=100	=100	=100	=100	=100	=100	=100
4BB-	.	2.BB-	.	8FL	.	4d	.	8ddL	.	2.r	.	2.r	.	.	2.r	.	.	4BB-: 4F:	4B-: 4d: 4f: 4b-: 4dd:	.	2.r	.	2.r	.	2.r	.	2.r	.
.	.	.	.	8GJ	.	.	.	8ccJ	.	.	.	.	.	.	.	.	.	.	.	.	.	.	.	.	.	.	.	.
8r	.	.	.	8B-L	.	4f	.	8b-L	.	.	.	.	.	.	.	.	.	4r	4r	.	.	.	.	.	.	.	.	.
8FF	.	.	.	8cJ	.	.	.	8aJ	.	.	.	.	.	.	.	.	.	.	.	.	.	.	.	.	.	.	.	.
8BB-L	.	.	.	8B-L	.	4d	.	8gL	.	.	.	.	.	.	.	.	.	4BB-: 4F:	4B-: 4d: 4f: 4b-: 4dd:	.	.	.	.	.	.	.	.	.
8DJ	.	.	.	8AJ	.	.	.	8fJ	.	.	.	.	.	.	.	.	.	.	.	.	.	.	.	.	.	.	.	.
=101	=101	=101	=101	=101	=101	=101	=101	=101	=101	=101	=101	=101	=101	=101	=101	=101	=101	=101	=101	=101	=101	=101	=101	=101	=101	=101	=101	=101
4C	.	(2.C	.	(2.c	.	2.f	.	[2g	.	2.r	.	2.r	.	.	2.r	.	.	4C: 4G: 4c:	4f: 4g: 4cc:	.	2.r	.	2.r	.	2.r	.	2.r	.
4.r	.	.	.	.	.	.	.	.	.	.	.	.	.	.	.	.	.	4r	4r	.	.	.	.	.	.	.	.	.
.	.	.	.	.	.	.	.	8gL]	.	.	.	.	.	.	.	.	.	4r	4g	.	.	.	.	.	.	.	.	.
16r	.	.	.	.	.	.	.	8aJ	.	.	.	.	.	.	.	.	.	.	.	.	.	.	.	.	.	.	.	.
16G	.	.	.	.	.	.	.	.	.	.	.	.	.	.	.	.	.	.	.	.	.	.	.	.	.	.	.	.
=102	=102	=102	=102	=102	=102	=102	=102	=102	=102	=102	=102	=102	=102	=102	=102	=102	=102	=102	=102	=102	=102	=102	=102	=102	=102	=102	=102	=102
2.c;	.	2.C;)	.	2.c;)	.	2.e;	.	2.g;	.	2.r	.	2.r	.	.	2.r	.	.	8C	8r	.	2.r	.	2.r	.	2.r	.	2.r	.
.	.	.	.	.	.	.	.	.	.	.	.	.	.	.	.	.	.	4r	16cLL	.	.	.	.	.	.	.	.	.
.	.	.	.	.	.	.	.	.	.	.	.	.	.	.	.	.	.	.	16eJJ	.	.	.	.	.	.	.	.	.
.	.	.	.	.	.	.	.	.	.	.	.	.	.	.	.	.	.	.	16gLL	.	.	.	.	.	.	.	.	.
.	.	.	.	.	.	.	.	.	.	.	.	.	.	.	.	.	.	.	16ccJ	.	.	.	.	.	.	.	.	.
.	.	.	.	.	.	.	.	.	.	.	.	.	.	.	.	.	.	8r	8ddJ	.	.	.	.	.	.	.	.	.
.	.	.	.	.	.	.	.	.	.	.	.	.	.	.	.	.	.	4r	4ee;	.	.	.	.	.	.	.	.	.
==103	==103	==103	==103	==103	==103	==103	==103	==103	==103	==103	==103	==103	==103	==103	==103	==103	==103	==103	==103	==103	==103	==103	==103	==103	==103	==103	==103	==103
*-	*-	*-	*-	*-	*-	*-	*-	*-	*-	*-	*-	*-	*-	*-	*-	*-	*-	*-	*-	*-	*-	*-	*-	*-	*-	*-	*-	*-
!!!system-decoration: [(s1,s2,s3,s4)]{(s5,s6)}(s7)[(s8,s9)][(s10,s11,s12,s13,s14)]
!!!YEM: Copyrights by Tomasz Kozubek. All rights reserved
!!!RDF**kern: Z = caesura
